!!!!SEGMENT: pl-wtm--r-1740-m--002-001_moniuszko-stanislaw--sonety-krymskie-intrada.krn
!!!cenid: 18xx:2918
!!!COM: Moniuszko, Stanisław
!!!COM-rismID: pe30008351
!!!CDT: 1819/05/05-1872/06/04
!!!CNT: Polish
!!!GTL: Sonety krymskie
!!!OTL: Intrada
!!!OMV: 001
!!!PDT:
!!!AGN: Secular; Sonnet
!!!YEC: Copyright 2022 Narodowy Instytut Fryderyka Chopina (https://polishscores.org)
!!!YEM: License CC-BY-4.0 (https://creativecommons.org/licenses/by/4.0)
!!!SMS-siglum: PL-Wtm
!!!SMS-shelfmark: R 1740/M
!!!SMS-shelfwork: 002-001 G
!!!SMS-variant:
!!!SMS-altvar:
!!!NIFC-rismSourceID: 1001096353
!!!NIFC-rismChildID: 1001096353
!!!NIFC-islandoraID:
!!!URL-pdf-islandora:
!!!URL-scan:
!!!IIIF:
!!!ONB-nifc: UWAGA: w zbiorze 2 aranżacje Sonetów. Pliki nr 001-001-010 w obsadzie vl (2), vla, vlc,
!!!AIN: 1 arpa 1 clars 2 empty 1 fagot 1 flt 1 oboe 1 picco 1 tambn 1 timpa
!!!key:
**kern	**kern	**dynam	**kern	**dynam	**kern	**dynam	**kern	**dynam	**kern	**dynam	**kern	**dynam	**kern	**dynam	**kern	**dynam	**kern	**dynam	**kern	**dynam
*	*	*	*	*	*	*	*group1	*	*group1	*	*	*	*	*	*	*	*	*	*	*
*part10	*part10	*	*part9	*	*part8	*	*part7	*	*part6	*	*part5	*	*part4	*	*part3	*	*part2	*	*part1	*
*staff11	*staff10	*	*staff9	*	*staff8	*	*staff7	*	*staff6	*	*staff5	*	*staff4	*	*staff3	*	*staff2	*	*staff1	*
*	*	*	*	*	*	*	*I""Corni.	*	*I""Corni.	*	*	*	*	*	*	*	*	*	*	*
*Iarpa	*Iarpa	*	*Itambn	*	*Itimpa	*	*Iempty	*	*Iempty	*	*Ifagot	*	*Iclars	*	*Ioboe	*	*Ipicco	*	*Iflt	*
*I"arfa.	*I"arfa.	*	*I"Tamburino.	*	*I"Timp:	*	*I"in F.	*	*I"in F.	*	*I"Fagotti.	*	*I"in A. Clar.	*	*I"Oboi.	*	*I"Piccolo.	*	*I"Flauto.	*
*I'arfa	*I'arfa	*	*I'Tamburino	*	*I'Timp.	*	*I'Cor.	*	*I'Cor.	*	*I'Fag.	*	*I'Clar	*	*I'Ob.	*	*I'Fl: picc.	*	*I'F.l	*
*clefF4	*clefG2	*	*clefG2	*	*clefF4	*	*clefG2	*	*clefG2	*	*clefF4	*	*clefG2	*	*clefG2	*	*clefG2	*	*clefG2	*
*	*	*	*	*	*	*	*ITrd4c7	*	*ITrd4c7	*	*	*	*ITrd2c3	*	*	*	*ITrd0c0	*	*	*
*k[f#c#g#]	*k[f#c#g#]	*	*k[]	*	*k[]	*	*k[b-]	*	*k[b-]	*	*k[f#c#g#]	*	*k[f#c#g#]	*	*k[f#c#g#]	*	*k[f#c#g#]	*	*k[f#c#g#]	*
*b:	*b:	*	*b:	*	*b:	*	*b:	*	*b:	*	*b:	*	*b:	*	*b:	*	*b:	*	*b:	*
*M4/4	*M4/4	*	*M4/4	*	*M4/4	*	*M4/4	*	*M4/4	*	*M4/4	*	*M4/4	*	*M4/4	*	*M4/4	*	*M4/4	*
*met(c)	*met(c)	*	*met(c)	*	*met(c)	*	*met(c)	*	*met(c)	*	*met(c)	*	*met(c)	*	*met(c)	*	*met(c)	*	*met(c)	*
=1	=1	=1	=1	=1	=1	=1	=1	=1	=1	=1	=1	=1	=1	=1	=1	=1	=1	=1	=1	=1
*all\right	*all\right	*	*all\right	*	*all\right	*	*	*	*all\right	*	*all\right	*	*all\right	*	*all\right	*	*all\right	*	*all\right	*
*	*	*	*	*	*	*	*	*	*	*	*^	*	*	*	*	*	*	*	*	*
!	!	!	!	!	!	!	!	!	!	!	!	!	!	!	!	!	!	!	!	!LO:TX:a:B:t=a):color=blue	!
!	!	!	!	!	!	!	!	!	!	!	!	!	!	!	!	!	!	!	!	!LO:TX:a:i:t=do Sonetów.\narfa - Timp - etc	!
!	!	!	!	!	!	!	!	!	!	!	!	!	!	!	!	!	!	!	!	!LO:TX:a:i:t=Dęte instrumenty:note=podkreślone na czerwono	!
!	!	!	!	!	!	!	!	!	!	!	!	!	!	!	!	!	!	!	!	!LO:TX:a:i:t=Intrada. Largo	!
!	!	!	!	!	!LO:TX:t=P:problem=zamiast oznaczenia tonacji dźwięki AA D	!	!LO:TX:a:t=P:problem=klucz i znaki zapisany znakiem powtórki	!	!	!	!	!LO:TX:a:t=P:problem=na tej stronie partia zapisana na dole ze znakiem (x)	!	!	!	!LO:TX:a:t=P:problem=znaki f# cc# g#, zaznaczone znakiem powtórki	!	!LO:TX:a:t=P:problem=znaki f# cc# g#, zaznaczone znakiem powtórki	!	!LO:TX:a:t=P:problem=znaki f# cc# g#	!
1r	1r	.	1r	.	1r	.	2r	.	2r	.	2ryy	2ryy	.	2r	.	2r	.	1r	.	1r	.
.	.	.	.	.	.	.	4r	.	4r	.	4ryy	4ryy	.	4r	.	4r	.	.	.	.	.
.	.	.	.	.	.	.	8.r	.	8.r	.	8.ryy	8.ryy	.	8.r	.	8.r	.	.	.	.	.
!	!	!	!	!	!	!	!	!LO:DY:rj	!	!LO:DY:rj	!	!	!	!	!LO:DY:rj	!	!	!	!	!	!
.	.	.	.	.	.	ff	16f#X 16A/	ff	16f#X 16c#X/	ff	16A/	16A\	ff	16ff# 16cc#\	ff	16ff# 16cc#\	ff	.	.	.	.
=2	=2	=2	=2	=2	=2	=2	=2	=2	=2	=2	=2	=2	=2	=2	=2	=2	=2	=2	=2	=2	=2
*	*	*	*	*	*	*	*	*	*	*	*	*2\right	*	*2\right	*	*2\right	*	*	*	*	*
1r	1r	.	1r	.	2AATT/	>	(>2f#X [2A/	.	(>2f#X 2c#X/	.	(>2A/	(>2A\	.	2ff# 2cc#\	.	(2ff# (2cc#\	.	1r	.	1r	.
.	.	.	.	.	8AA/	]	8c#X 8A/])	.	8c# 8F#X/)	.	8AA/)	8AA\)	.	8cc# 8f#\	.	8cc# 8f#/))	.	.	.	.	.
.	.	.	.	.	8r	.	8r	.	8r	.	8r	8ryy	.	8r	.	8r	.	.	.	.	.
.	.	.	.	.	4r	.	4r	.	4r	.	4r	4ryy	.	4r	.	4r	.	.	.	.	.
*	*	*	*	*	*	*	*	*	*	*	*v	*v	*	*	*	*	*	*	*	*	*
=3	=3	=3	=3	=3	=3	=3	=3	=3	=3	=3	=3	=3	=3	=3	=3	=3	=3	=3	=3	=3
1r	1r	.	1r	.	1r	.	1r	.	1r	.	1r	.	1r	.	1r	.	1r	.	1r	.
!	!	!	!	!	!	!	!	!	!	!	!	!LO:DY:a	!	!	!	!	!	!	!	!
.	.	.	.	.	.	.	.	sf	.	sf	.	sf	.	.	.	.	.	.	.	.
=4	=4	=4	=4	=4	=4	=4	=4	=4	=4	=4	=4	=4	=4	=4	=4	=4	=4	=4	=4	=4
*	*	*	*	*	*	*	*	*	*^	*	*^	*	*^	*	*^	*	*	*	*	*
!	!	!	!	!	!	!	!	!	!	!	!	!	!	!LO:HP:a	!	!	!	!	!	!	!	!	!	!
1r	1r	.	1r	.	1r	.	[2F#X [2D/	>	[2f#X [<2D/	2ryy	>	(>2D/	(>2D\	>	(2cc#/	1r	sf >	2r	1r	.	1ryy	.	1ryy	.
.	.	.	.	.	.	.	8F#] 8D/]	]	8f#] 8D/]	4ryy	]	8DD/)	8DD\)	]	8b/)	.	]	4r	.	.	.	.	.	.
.	.	.	.	.	.	.	8r	.	8r	.	.	8r	8ryy	.	8r	.	.	.	.	.	.	.	.	.
.	.	.	.	.	.	.	4r	.	8.r	8.ryy	.	4r	4ryy	.	8.r	.	ff	8.r	.	ff	.	.	.	.
.	.	.	.	.	.	.	.	.	16d/	16d\	.	.	.	.	16dd 16d/	.	.	16dd/	.	.	.	.	.	.
*	*	*	*	*	*	*	*	*	*	*	*	*v	*v	*	*	*	*	*	*	*	*	*	*	*
*	*	*	*	*	*	*	*	*	*	*	*	*	*	*v	*v	*	*	*	*	*	*	*	*
=5	=5	=5	=5	=5	=5	=5	=5	=5	=5	=5	=5	=5	=5	=5	=5	=5	=5	=5	=5	=5	=5	=5
1r	1r	.	1r	.	1r	.	1r	.	4..d/	4..d\	.	1r	.	4..dd 4..d/	.	4..dd/	1r	.	1ryy	.	1ryy	.
.	.	.	.	.	.	.	.	.	16d/	16d\	.	.	.	16dd 16d/	.	16dd/	.	.	.	.	.	.
.	.	.	.	.	.	.	.	.	4..d/	4..d\	.	.	.	4..dd 4..d/	.	4..dd/	.	.	.	.	.	.
.	.	.	.	.	.	.	.	.	16d/	16d\	.	.	.	16dd 16d/	.	16dd/	.	.	.	.	.	.
!	!	!	!	!	!	!	!	!LO:DY:t=sff	!	!	!	!	!	!	!LO:DY:t=sff	!	!	!	!	!	!	!
.	.	.	.	.	.	.	.	sf	.	.	.	.	.	.	sf	.	.	.	.	.	.	.
=6	=6	=6	=6	=6	=6	=6	=6	=6	=6	=6	=6	=6	=6	=6	=6	=6	=6	=6	=6	=6	=6	=6
*	*	*	*	*	*	*	*	*	*	*	*	*	*	*^	*	*	*	*	*	*	*	*
*	*	*	*	*	*2\right	*	*	*	*	*	*	*	*	*	*	*	*	*	*	*	*	*	*
!	!	!	!	!	!	!	!	!	!	!	!	!	!	!	!	!	!	!	!LO:HP:a	!	!	!	!
!	!	!	!	!	!	!	!	!	!	!	!LO:DY:rj:t=sff	!LO:S:s=2:note:problem=note-level slur	!LO:DY:t=sff	!	!	!	!	!	!LO:DY:rj:t=sff	!	!	!	!
1r	1r	.	1ryy	.	2DTT\	.	[2BX [>2G#X/	>	[2f#/	[>2d\	sf >	(>2D (>2BB\	sf >	(2dd/	2d\	>	(>2dd/	(>2dd\	sf >	1ryy	.	1ryy	.
.	.	.	.	.	8D\	.	8B] 8G#/]	]	8f#/]	8d\]	]	8d) 8B\)	]	2e#X/)	2r	]	2d/)	2d\)	]	.	.	.	.
.	.	.	.	.	8r	.	8r	.	8r	8ryy	.	8r	.	.	.	.	.	.	.	.	.	.	.
.	.	.	.	.	4r	.	4r	.	4r	4ryy	.	4r	.	.	.	.	.	.	.	.	.	.	.
*	*	*	*	*	*	*	*	*	*v	*v	*	*	*	*	*	*	*	*	*	*	*	*	*
!!LO:LB:g=original
=7	=7	=7	=7	=7	=7	=7	=7	=7	=7	=7	=7	=7	=7	=7	=7	=7	=7	=7	=7	=7	=7	=7
*	*	*	*	*	*	*	*	*	*	*	*^	*	*	*	*	*	*	*	*^	*	*	*
!	!	!	!	!	!LO:TX:t=P:problem=partia timp. i tamb. na jednej linii	!	!LO:TX:t=P:problem=rogi zapisane na jednej pięciolinii do t. 21	!	!	!	!	!	!	!	!	!	!	!	!LO:HP:a	!	!	!	!	!
1r	1r	.	1r	.	1r	.	1r	.	1r	.	2.C#/	2.C#\	.	4f#/	4c#\	.	2.c#/	2.c#\	<	1rg	1rdd	.	1ryy	.
.	.	.	.	.	.	.	.	.	.	.	.	.	.	8.a/L	4r	.	.	.	.	.	.	.	.	.
.	.	.	.	.	.	.	.	.	.	.	.	.	.	16b/Jk	.	.	.	.	.	.	.	.	.	.
.	.	.	.	.	.	.	.	.	.	.	.	.	.	4cc#/	2r	.	.	.	.	.	.	.	.	.
!	!	!	!	!	!	!	!	!	!	!	!	!LO:N:vis=8	!	!	!	!	!	!	!	!	!	!	!	!
.	.	.	.	.	.	.	.	.	.	.	8.F#/L	8.F#\L	.	4r	.	.	8.f#/L	4f#\	.	.	.	.	.	.
.	.	.	.	.	.	.	.	.	.	.	16A/Jk	16A\Jk	.	.	.	.	16a/Jk	.	[	.	.	.	.	.
*	*	*	*	*	*	*	*	*	*	*	*	*	*	*v	*v	*	*	*	*	*	*	*	*	*
=8	=8	=8	=8	=8	=8	=8	=8	=8	=8	=8	=8	=8	=8	=8	=8	=8	=8	=8	=8	=8	=8	=8	=8
!	!	!	!	!	!	!	!	!	!	!	!	!	!LO:DY:t=sff p.	!	!	!	!	!LO:DY:a:t=sff p.	!	!	!	!	!
1r	1r	.	1r	.	1r	.	1r	.	1r	.	(>2A/	(>2A\	sf p	1r	.	(2a/	1e#X	sf p	1rg	1rdd	.	1ryy	.
.	.	.	.	.	.	.	.	.	.	.	2G#/)	2G#\)	.	.	.	2g#/)	.	.	.	.	.	.	.
*	*	*	*	*	*	*	*	*	*	*	*	*	*	*	*	*v	*v	*	*	*	*	*	*
*	*	*	*	*	*	*	*	*	*	*	*v	*v	*	*	*	*	*	*v	*v	*	*	*
=9||	=9||	=9||	=9||	=9||	=9||	=9||	=9||	=9||	=9||	=9||	=9||	=9||	=9||	=9||	=9||	=9||	=9||	=9||	=9||	=9||
*M6/8	*M6/8	*	*M6/8	*	*M6/8	*	*M6/8	*	*M6/8	*	*M6/8	*	*M6/8	*	*M6/8	*	*M6/8	*	*M6/8	*
*	*	*	*	*	*	*	*	*	*	*	*^	*	*^	*	*	*	*	*	*	*
!	!LO:TX:t=P:problem=mixed beam	!	!	!	!	!	!	!	!	!	!	!	!	!	!	!	!	!	!	!	!LO:TX:a:t=Andantino.	!
2.ryy	16AA</LL	.	2.ryy	.	2.ryy	.	2.ryy	.	2.ryy	.	4.A/	[2.E\	pp	([2.e/	4.c#\	pp	2.ryy	.	2.ryy	.	2.ryy	.
.	16E</	.	.	.	.	.	.	.	.	.	.	.	.	.	.	.	.	.	.	.	.	.
.	16A</	.	.	.	.	.	.	.	.	.	.	.	.	.	.	.	.	.	.	.	.	.
.	16c#\	.	.	.	.	.	.	.	.	.	.	.	.	.	.	.	.	.	.	.	.	.
.	16d\	.	.	.	.	.	.	.	.	.	.	.	.	.	.	.	.	.	.	.	.	.
.	16a\JJ	.	.	.	.	.	.	.	.	.	.	.	.	.	.	.	.	.	.	.	.	.
!	!LO:TX:t=P:problem=mixed beam	!	!	!	!	!	!	!	!	!	!	!	!	!	!	!	!	!	!	!	!	!
.	16g#\LL	.	.	.	.	.	.	.	.	.	4.B/	.	.	.	4.d\	.	.	.	.	.	.	.
.	16e\	.	.	.	.	.	.	.	.	.	.	.	.	.	.	.	.	.	.	.	.	.
.	16d\	.	.	.	.	.	.	.	.	.	.	.	.	.	.	.	.	.	.	.	.	.
.	16B</	.	.	.	.	.	.	.	.	.	.	.	.	.	.	.	.	.	.	.	.	.
.	16G#</	.	.	.	.	.	.	.	.	.	.	.	.	.	.	.	.	.	.	.	.	.
.	16E</JJ	.	.	.	.	.	.	.	.	.	.	.	.	.	.	.	.	.	.	.	.	.
=10	=10	=10	=10	=10	=10	=10	=10	=10	=10	=10	=10	=10	=10	=10	=10	=10	=10	=10	=10	=10	=10	=10
!	!LO:TX:t=P:problem=mixed beam	!	!	!	!	!	!	!	!	!	!	!	!	!	!	!	!	!	!	!	!	!
2.ryy	16AA</LL	.	2.ryy	.	2.ryy	.	2.ryy	.	2.ryy	.	2.A/	(2.E\]	.	2.e/]	2.c#\	<	2.ryy	.	2.ryy	.	2.ryy	.
.	16E</	.	.	.	.	.	.	.	.	.	.	.	.	.	.	.	.	.	.	.	.	.
.	16A</	.	.	.	.	.	.	.	.	.	.	.	.	.	.	.	.	.	.	.	.	.
.	16c#\	.	.	.	.	.	.	.	.	.	.	.	.	.	.	.	.	.	.	.	.	.
.	16e\	.	.	.	.	.	.	.	.	.	.	.	.	.	.	.	.	.	.	.	.	.
.	16a\JJ	.	.	.	.	.	.	.	.	.	.	.	.	.	.	.	.	.	.	.	.	.
.	16cc#\LL	.	.	.	.	.	.	.	.	.	.	.	.	.	.	.	.	.	.	.	.	.
.	16ee\	.	.	.	.	.	.	.	.	.	.	.	.	.	.	.	.	.	.	.	.	.
.	16cc#\	.	.	.	.	.	.	.	.	.	.	.	.	.	.	.	.	.	.	.	.	.
.	16a\	.	.	.	.	.	.	.	.	.	.	.	.	.	.	.	.	.	.	.	.	.
.	16e\	.	.	.	.	.	.	.	.	.	.	.	.	.	.	.	.	.	.	.	.	.
.	16c#\JJ	.	.	.	.	.	.	.	.	.	.	.	.	.	.	.	.	.	.	.	.	.
*	*	*	*	*	*	*	*	*	*	*	*	*	*	*v	*v	*	*	*	*	*	*	*
=11	=11	=11	=11	=11	=11	=11	=11	=11	=11	=11	=11	=11	=11	=11	=11	=11	=11	=11	=11	=11	=11
2.ryy	16A/LL	.	2.ryy	.	2.ryy	.	2.ryy	.	2.ryy	.	4.F#/	2.AA\)	.	4.d#X 4.B#X/	[ sf >	2.ryy	.	2.ryy	.	2.ryy	.
.	16B#X/	.	.	.	.	.	.	.	.	.	.	.	.	.	.	.	.	.	.	.	.
.	16f#/	.	.	.	.	.	.	.	.	.	.	.	.	.	.	.	.	.	.	.	.
.	16a/	.	.	.	.	.	.	.	.	.	.	.	.	.	.	.	.	.	.	.	.
.	16f#/	.	.	.	.	.	.	.	.	.	.	.	.	.	.	.	.	.	.	.	.
.	16B#/JJ	.	.	.	.	.	.	.	.	.	.	.	.	.	.	.	.	.	.	.	.
.	16A/LL	.	.	.	.	.	.	.	.	.	[4.A/	.	.	[4.e [>4.c#/	.	.	.	.	.	.	.
.	16c#/	.	.	.	.	.	.	.	.	.	.	.	.	.	.	.	.	.	.	.	.
.	16e/	.	.	.	.	.	.	.	.	.	.	.	.	.	.	.	.	.	.	.	.
.	16a/	.	.	.	.	.	.	.	.	.	.	.	.	.	.	.	.	.	.	.	.
.	16e/	.	.	.	.	.	.	.	.	.	.	.	.	.	.	.	.	.	.	.	.
.	16c#/JJ	.	.	.	.	.	.	.	.	.	.	.	.	.	]	.	.	.	.	.	.
=12	=12	=12	=12	=12	=12	=12	=12	=12	=12	=12	=12	=12	=12	=12	=12	=12	=12	=12	=12	=12	=12
2.ryy	16c#/LL	.	2.ryy	.	2.ryy	.	2.ryy	.	2.ryy	.	2.A/]	[2.AA\	.	2.e] 2.c#/])	.	2.ryy	.	2.ryy	.	2.ryy	.
.	16e/	.	.	.	.	.	.	.	.	.	.	.	.	.	.	.	.	.	.	.	.
.	16a/	.	.	.	.	.	.	.	.	.	.	.	.	.	.	.	.	.	.	.	.
.	16cc#/	.	.	.	.	.	.	.	.	.	.	.	.	.	.	.	.	.	.	.	.
.	16a/	.	.	.	.	.	.	.	.	.	.	.	.	.	.	.	.	.	.	.	.
.	16e/JJ	.	.	.	.	.	.	.	.	.	.	.	.	.	.	.	.	.	.	.	.
.	16c#/LL	.	.	.	.	.	.	.	.	.	.	.	.	.	.	.	.	.	.	.	.
.	16e/	.	.	.	.	.	.	.	.	.	.	.	.	.	.	.	.	.	.	.	.
.	16a/	.	.	.	.	.	.	.	.	.	.	.	.	.	.	.	.	.	.	.	.
.	16e/	.	.	.	.	.	.	.	.	.	.	.	.	.	.	.	.	.	.	.	.
.	16c#/	.	.	.	.	.	.	.	.	.	.	.	.	.	.	.	.	.	.	.	.
.	16A/JJ	.	.	.	.	.	.	.	.	.	.	.	.	.	.	.	.	.	.	.	.
=13	=13	=13	=13	=13	=13	=13	=13	=13	=13	=13	=13	=13	=13	=13	=13	=13	=13	=13	=13	=13	=13
*	*	*	*	*	*	*	*	*	*	*	*	*	*	*^	*	*	*	*	*	*	*
2.ryy	16B/LL	.	2.ryy	.	2.ryy	.	2.ryy	.	2.ryy	.	(2.B/	2.AA\_	.	([2.gX/	2.d\	.	2.ryy	.	2.ryy	.	2.ryy	.
.	16d/	.	.	.	.	.	.	.	.	.	.	.	.	.	.	.	.	.	.	.	.	.
.	16gn/	.	.	.	.	.	.	.	.	.	.	.	.	.	.	.	.	.	.	.	.	.
.	16b/	.	.	.	.	.	.	.	.	.	.	.	.	.	.	.	.	.	.	.	.	.
.	16dd/	.	.	.	.	.	.	.	.	.	.	.	.	.	.	.	.	.	.	.	.	.
.	16b/JJ	.	.	.	.	.	.	.	.	.	.	.	.	.	.	.	.	.	.	.	.	.
.	16g/LL	.	.	.	.	.	.	.	.	.	.	.	.	.	.	.	.	.	.	.	.	.
.	16d/	.	.	.	.	.	.	.	.	.	.	.	.	.	.	.	.	.	.	.	.	.
.	16B/	.	.	.	.	.	.	.	.	.	.	.	.	.	.	.	.	.	.	.	.	.
.	16d/	.	.	.	.	.	.	.	.	.	.	.	.	.	.	.	.	.	.	.	.	.
.	16g/	.	.	.	.	.	.	.	.	.	.	.	.	.	.	.	.	.	.	.	.	.
.	16b/JJ	.	.	.	.	.	.	.	.	.	.	.	.	.	.	.	.	.	.	.	.	.
*	*	*	*	*	*	*	*	*	*	*	*	*	*	*v	*v	*	*	*	*	*	*	*
=14	=14	=14	=14	=14	=14	=14	=14	=14	=14	=14	=14	=14	=14	=14	=14	=14	=14	=14	=14	=14	=14
2.ryy	16c#/LL	.	2.ryy	.	2.ryy	.	2.ryy	.	2.ryy	.	2.c#\	2.AA\_	.	2.g] [2.A/	.	2.ryy	.	2.ryy	.	2.ryy	.
.	16e/	.	.	.	.	.	.	.	.	.	.	.	.	.	.	.	.	.	.	.	.
.	16a/	.	.	.	.	.	.	.	.	.	.	.	.	.	.	.	.	.	.	.	.
.	16cc#/	.	.	.	.	.	.	.	.	.	.	.	.	.	.	.	.	.	.	.	.
.	16ee/	.	.	.	.	.	.	.	.	.	.	.	.	.	.	.	.	.	.	.	.
.	16cc#/JJ	.	.	.	.	.	.	.	.	.	.	.	.	.	.	.	.	.	.	.	.
.	16a/LL	.	.	.	.	.	.	.	.	.	.	.	.	.	.	.	.	.	.	.	.
.	16e/	.	.	.	.	.	.	.	.	.	.	.	.	.	.	.	.	.	.	.	.
.	16c#/	.	.	.	.	.	.	.	.	.	.	.	.	.	.	.	.	.	.	.	.
.	16e/	.	.	.	.	.	.	.	.	.	.	.	.	.	.	.	.	.	.	.	.
.	16a/	.	.	.	.	.	.	.	.	.	.	.	.	.	.	.	.	.	.	.	.
.	16e/JJ	.	.	.	.	.	.	.	.	.	.	.	.	.	.	.	.	.	.	.	.
=15	=15	=15	=15	=15	=15	=15	=15	=15	=15	=15	=15	=15	=15	=15	=15	=15	=15	=15	=15	=15	=15
2.ryy	16f#/LL	.	2.ryy	.	2.ryy	.	2.ryy	.	2.ryy	.	4.d\	2.AA\]	.	4.f# 4.A/]	.	2.ryy	.	2.ryy	.	2.ryy	.
.	16d/	.	.	.	.	.	.	.	.	.	.	.	.	.	.	.	.	.	.	.	.
.	16A/	.	.	.	.	.	.	.	.	.	.	.	.	.	.	.	.	.	.	.	.
.	16d/	.	.	.	.	.	.	.	.	.	.	.	.	.	.	.	.	.	.	.	.
.	16f#/	.	.	.	.	.	.	.	.	.	.	.	.	.	.	.	.	.	.	.	.
.	16a/JJ	.	.	.	.	.	.	.	.	.	.	.	.	.	.	.	.	.	.	.	.
.	16dd/LL	.	.	.	.	.	.	.	.	.	4.G#X\	.	.	4.e#X 4.B/	.	.	.	.	.	.	.
.	16b/	.	.	.	.	.	.	.	.	.	.	.	.	.	.	.	.	.	.	.	.
!	!LO:ACC:color=blue	!	!	!	!	!	!	!	!	!	!	!	!	!	!	!	!	!	!	!	!
.	16gn/	.	.	.	.	.	.	.	.	.	.	.	.	.	.	.	.	.	.	.	.
.	16d/	.	.	.	.	.	.	.	.	.	.	.	.	.	.	.	.	.	.	.	.
.	16b@/	.	.	.	.	.	.	.	.	.	.	.	.	.	.	.	.	.	.	.	.
.	16d/JJ	.	.	.	.	.	.	.	.	.	.	.	.	.	.	.	.	.	.	.	.
!!LO:PB:g=original
=16	=16	=16	=16	=16	=16	=16	=16	=16	=16	=16	=16	=16	=16	=16	=16	=16	=16	=16	=16	=16	=16
!	!	!	!	!	!	!	!	!	!	!	!	!LO:TX:a:t=P:problem=brak zakończenia łuku	!	!LO:TX:a:t=P:problem=brak zakończenia łuku	!	!	!	!	!	!	!
2.ryy	16f#/LL	.	4r	.	2.r	.	2.r	.	2.r	.	2.A/)	2.AA\	.	2.f# 2.c#/)	.	2.r	.	4r	.	4r	.
.	16c#/	.	.	.	.	.	.	.	.	.	.	.	.	.	.	.	.	.	.	.	.
.	16f#/	.	.	.	.	.	.	.	.	.	.	.	.	.	.	.	.	.	.	.	.
.	16a/	.	.	.	.	.	.	.	.	.	.	.	.	.	.	.	.	.	.	.	.
.	16cc#/	.	8r	.	.	.	.	.	.	.	.	.	.	.	.	.	.	8r	.	8r	.
.	16a/JJ	.	.	.	.	.	.	.	.	.	.	.	.	.	.	.	.	.	.	.	.
.	16f#/LL	.	4r	.	.	.	.	.	.	.	.	.	.	.	.	.	.	4r	.	4r	.
.	16a/	.	.	.	.	.	.	.	.	.	.	.	.	.	.	.	.	.	.	.	.
.	16cc#/	.	.	.	.	.	.	.	.	.	.	.	.	.	.	.	.	.	.	.	.
.	16ff#/	.	.	.	.	.	.	.	.	.	.	.	.	.	.	.	.	.	.	.	.
.	16aa/	.	16r	.	.	.	.	.	.	.	.	.	.	.	.	.	.	16r	pp	16r	pp
.	16ccc#/JJ	.	64Ree/LLLL	.	.	.	.	.	.	.	.	.	.	.	.	.	.	(32ccc#\LLL	.	(32ccc#\LLL	.
.	.	.	64Ree/	.	.	.	.	.	.	.	.	.	.	.	.	.	.	.	.	.	.
.	.	.	64Ree/	.	.	.	.	.	.	.	.	.	.	.	pp	.	pp	32aa\JJJ	.	32aa\JJJ	.
.	.	.	64Ree/JJJJ	.	.	.	.	.	.	.	.	.	.	.	.	.	.	.	.	.	.
*	*	*	*	*	*	*	*	*	*	*	*v	*v	*	*	*	*	*	*	*	*	*
=17	=17	=17	=17	=17	=17	=17	=17	=17	=17	=17	=17	=17	=17	=17	=17	=17	=17	=17	=17	=17
*	*	*	*	*	*	*	*	*	*	*	*	*	*	*	*^	*	*	*	*	*
!	!	!	!	!	!	!	!	!	!	!	!	!	!	!	!	!	!	!	!	!LO:TX:a:t=P:problem=tt. 17-21 wzięte w zieloną klamrę i przekreślone	!
4A\	16A</LL	.	8Ree/	.	8AA\	.	2.r	.	2.r	.	8A 8AA/	.	8f# 8c#/	.	8cc#'</	2.r	.	8ff#'\)	.	8ff#'\)	.
.	16c#/	.	.	.	.	.	.	.	.	.	.	.	.	.	.	.	.	.	.	.	.
.	16f#/	.	8r	.	8r	.	.	.	.	.	8r	.	8r	.	8r	.	.	8r	.	8r	.
.	16a/	.	.	.	.	.	.	.	.	.	.	.	.	.	.	.	.	.	.	.	.
8ryy	16f#/	.	8r	.	8AA\	.	.	.	.	.	8A 8AA/	.	8f# 8c#/	.	8cc#'</	.	.	8ff#'\	.	8ff#'\	.
.	16c#/JJ	.	.	.	.	.	.	.	.	.	.	.	.	.	.	.	.	.	.	.	.
4G#\	16G#</LL	.	4r	.	8D\	.	.	.	.	.	4G# 4BB/	.	(>4e#X 4c#/	.	8cc#'</	.	.	(4ee#X\	.	(4gg#\	.
.	16c#/	.	.	.	.	.	.	.	.	.	.	.	.	.	.	.	.	.	.	.	.
.	16g#/	.	.	.	8r	.	.	.	.	.	.	.	.	.	8r	.	.	.	.	.	.
.	16cc#/	.	.	.	.	.	.	.	.	.	.	.	.	.	.	.	.	.	.	.	.
8ryy	16g#/	.	8r	.	8D\	.	.	.	.	.	8c# 8BB/	.	8g# 8c#/	.	8cc#/	.	.	8gg#\	.	8ee#X\	.
.	16c#/JJ	.	.	.	.	.	.	.	.	.	.	.	.	.	.	.	.	.	.	.	.
=18	=18	=18	=18	=18	=18	=18	=18	=18	=18	=18	=18	=18	=18	=18	=18	=18	=18	=18	=18	=18	=18
*	*	*	*	*	*	*	*	*	*	*	*^	*	*^	*	*	*	*	*	*	*	*
4A\	16A</LL	.	4r	.	8AA\	.	2.r	.	2.r	.	[2.A/	[4.AA\	.	[2.f#/)	[2.c#\	.	[<4.cc#/	2.r	.	[<4.ff#\	.	[4.ff#\)	.
.	16c#/	.	.	.	.	.	.	.	.	.	.	.	.	.	.	.	.	.	.	.	.	.	.
.	16f#/	.	.	.	8r	.	.	.	.	.	.	.	.	.	.	.	.	.	.	.	.	.	.
.	16a/	.	.	.	.	.	.	.	.	.	.	.	.	.	.	.	.	.	.	.	.	.	.
8ryy	16cc#/	.	8r	.	8ryy	.	.	.	.	.	.	.	.	.	.	.	.	.	.	.	.	.	.
.	16a/JJ	.	.	.	.	.	.	.	.	.	.	.	.	.	.	.	.	.	.	.	.	.	.
4ryy	16ff#/LL	.	4r	.	4r	.	.	.	.	.	.	8AA\]	.	.	.	.	8cc#/]	.	.	8ff#\])	.	8ff#\]	.
.	16cc#/	.	.	.	.	.	.	.	.	.	.	.	.	.	.	.	.	.	.	.	.	.	.
.	16a/	.	.	.	.	.	.	.	.	.	.	8r	.	.	.	.	8r	.	.	8r	.	8.r	.
.	16f#/	.	.	.	.	.	.	.	.	.	.	.	.	.	.	.	.	.	.	.	.	.	.
8ryy	16cc#/	.	16r	.	8r	.	.	.	.	.	.	8r	.	.	.	.	8r	.	.	8r	.	.	.
.	16a/JJ	.	64Ree/LLLL	.	.	.	.	.	.	.	.	.	.	.	.	.	.	.	.	.	.	(32ccc#\LLL	.
.	.	.	64Ree/	.	.	.	.	.	.	.	.	.	.	.	.	.	.	.	.	.	.	.	.
.	.	.	64Ree/	.	.	.	.	.	.	.	.	.	.	.	.	.	.	.	.	.	.	32aa\JJJ	.
.	.	.	64Ree/JJJJ	.	.	.	.	.	.	.	.	.	.	.	.	.	.	.	.	.	.	.	.
=19	=19	=19	=19	=19	=19	=19	=19	=19	=19	=19	=19	=19	=19	=19	=19	=19	=19	=19	=19	=19	=19	=19	=19
!	!LO:TX:a:t=P:problem=wymazane dwa takty	!	!	!	!	!	!	!	!	!	!	!	!	!	!	!	!	!	!	!	!	!	!
2.ryy	2.ryy	.	8Ree/	.	4r	.	2.r	.	2.r	.	4.A/]	4r	.	4.f#/_	4.c#\]	.	4r	4ryy	.	8r	.	8ff#\)	.
.	.	.	8r	.	.	.	.	.	.	.	.	.	.	.	.	.	.	.	.	8r	.	8r	.
.	.	.	8r	.	8r	.	.	.	.	.	.	8r	.	.	.	.	8r	8rgyy	.	8ff#|\	.	8ff#|\	.
.	.	.	4r	.	4.D^<TT\	pp	.	.	.	.	4.A/	[4.D\	.	(4f#/]	4d\	.	(4dd/	4.a\	.	(4ff#\	.	(4aa\	.
.	.	.	8r	.	.	.	.	.	.	.	.	.	.	8a/)	8cX\	.	8ccn/)	.	.	8aa\	.	8dd\)	.
=20	=20	=20	=20	=20	=20	=20	=20	=20	=20	=20	=20	=20	=20	=20	=20	=20	=20	=20	=20	=20	=20	=20	=20
2.ryy	2.ryy	.	2.r	.	8D\	.	2.r	.	2.r	.	2.Gn/	2.D\]	.	2.d/	4.cX\	.	(4.ccn/	[4.gn\	.	[4.dd\)	.	[4.dd\	.
.	.	.	.	.	8r	.	.	.	.	.	.	.	.	.	.	.	.	.	.	.	.	.	.
.	.	.	.	.	8r	.	.	.	.	.	.	.	.	.	.	.	.	.	.	.	.	.	.
.	.	.	.	.	4r	.	.	.	.	.	.	.	.	.	4.B\	.	8b/)	8g\]	.	8dd\]	.	(8dd\L]	.
.	.	.	.	.	.	.	.	.	.	.	.	.	.	.	.	.	8r	8ryy	.	8r	.	16ee'\L	.
.	.	.	.	.	.	.	.	.	.	.	.	.	.	.	.	.	.	.	.	.	.	16ff#'\	.
!	!	!	!	!	!	!	!	!	!	!	!	!	!	!	!LO:TX:a:t=dolce	!	!	!	!	!	!	!	!
.	.	.	.	.	8r	.	.	.	.	.	.	.	.	.	.	.	8r	8ryy	.	8r	.	16ggn'\	.
.	.	.	.	.	.	.	.	.	.	.	.	.	.	.	.	.	.	.	.	.	.	16aa'\JJ)	.
*	*	*	*	*	*	*	*	*	*	*	*	*	*	*	*	*	*v	*v	*	*	*	*	*
=21	=21	=21	=21	=21	=21	=21	=21	=21	=21	=21	=21	=21	=21	=21	=21	=21	=21	=21	=21	=21	=21	=21
!	!LO:TX:t=P:problem=mixed beam	!	!	!	!	!	!	!	!	!	!	!	!	!	!	!	!	!	!	!	!LO:TX:b:t=dolce	!
2.ryy	16GGn</LL	.	2.r	.	2.r	.	2.r	.	2.r	.	2.D/	2.GGn\	.	(4.gX/	(4.B\	.	2.r	.	8r	.	8bb\	.
.	16D</	.	.	.	.	.	.	.	.	.	.	.	.	.	.	.	.	.	.	.	.	.
.	16Gn</	.	.	.	.	.	.	.	.	.	.	.	.	.	.	.	.	.	8r	.	8r	.
.	16B</	.	.	.	.	.	.	.	.	.	.	.	.	.	.	.	.	.	.	.	.	.
!	!	!	!	!	!	!	!	!	!	!	!	!	!	!	!	!	!	!	!LO:TX:b:t=dolce	!	!	!
.	16d\	.	.	.	.	.	.	.	.	.	.	.	.	.	.	.	.	.	8b'/	.	8ggn\	.
.	16gn\JJ	.	.	.	.	.	.	.	.	.	.	.	.	.	.	.	.	.	.	.	.	.
.	.	.	.	.	.	.	.	.	.	.	.	.	.	.	.	.	.	.	8qb/	.	8qgg/	.
!	!LO:TX:t=P:problem=mixed beam	!	!	!	!	!	!	!	!	!	!	!	!	!	!	!	!	!	!	!	!	!
.	16f#\LL	.	.	.	.	.	.	.	.	.	.	.	.	8f#/L	4.cX\	.	.	.	(8a/L	.	(8ff#\L	.
.	16d\	.	.	.	.	.	.	.	.	.	.	.	.	.	.	.	.	.	.	.	.	.
.	16cn\	.	.	.	.	.	.	.	.	.	.	.	.	8e/	.	.	.	.	8g#/)	.	8ee\)	.
.	16A</	.	.	.	.	.	.	.	.	.	.	.	.	.	.	.	.	.	.	.	.	.
.	16F#</	.	.	.	.	.	.	.	.	.	.	.	.	8f#/J	.	.	.	.	8a/J	.	8ff#\J	.
.	16D</JJ	.	.	.	.	.	.	.	.	.	.	.	.	.	.	.	.	.	.	.	.	.
!!LO:LB:g=original
=22	=22	=22	=22	=22	=22	=22	=22	=22	=22	=22	=22	=22	=22	=22	=22	=22	=22	=22	=22	=22	=22	=22
!	!LO:TX:t=P:problem=mixed beam	!	!	!	!LO:TX:t=P:problem=partia tmb i kotłów zapisana na jednej linii	!	!	!	!	!	!	!	!	!LO:TX:b:t=P:problem=brak zakończenia łuku	!LO:TX:a:t=P:problem=brak zakończenia łuku	!	!	!	!	!	!	!
2.ryy	16GGn</LL	.	2.ryy	.	2.ryy	.	2.r	.	2.r	.	(<4.D/	2.GGn\	<	(4.gX/)	4.B\)	.	2.r	.	[4.b\	<	[4.ggn\	<
.	16D</	.	.	.	.	.	.	.	.	.	.	.	.	.	.	.	.	.	.	.	.	.
.	16Gn</	.	.	.	.	.	.	.	.	.	.	.	.	.	.	.	.	.	.	.	.	.
.	16B</	.	.	.	.	.	.	.	.	.	.	.	.	.	.	<	.	.	.	.	.	.
.	16d\	.	.	.	.	.	.	.	.	.	.	.	.	.	.	.	.	.	.	.	.	.
.	16gn\JJ	.	.	.	.	.	.	.	.	.	.	.	.	.	.	.	.	.	.	.	.	.
.	16b/LL	.	.	.	.	.	.	.	.	.	8Gn/L	.	.	4b/	4.d\	.	.	.	8.b\]	.	8.gg\]	.
.	16dd/	.	.	.	.	.	.	.	.	.	.	.	.	.	.	.	.	.	.	.	.	.
.	16b/	.	.	.	.	.	.	.	.	.	8B/	.	.	.	.	.	.	.	.	.	.	.
.	16g/	.	.	.	.	.	.	.	.	.	.	.	.	.	.	.	.	.	16r	[	16r	.
.	16d/	.	.	.	.	.	.	.	.	.	8d/J)	.	.	8dd/)	.	[	.	.	8dd\	.	8bb\	[
.	16B/JJ	.	.	.	.	.	.	.	.	.	.	.	[	.	.	f	.	.	.	.	.	.
=23	=23	=23	=23	=23	=23	=23	=23	=23	=23	=23	=23	=23	=23	=23	=23	=23	=23	=23	=23	=23	=23	=23
!	!	!	!	!	!	!	!	!	!	!	!LO:TX:a:t=P:problem=akcent pomiędzy nutami	!	!LO:DY:rj	!	!LO:TX:b:t=P:problem=akcent pomiędzy nutami	!LO:HP:a	!	!	!	!LO:DY:rj	!	!
2.ryy	16Gn/LL	.	2.ryy	.	2.ryy	.	2.r	.	2.r	.	(<[4.c#X^/	[>2.GGn\	f >	([4.cc#/	4.A#X^\	>	2.r	.	([<4.ee^\	f >	(4.aa#X^\	f
.	16c#/	.	.	.	.	.	.	.	.	.	.	.	.	.	.	.	.	.	.	.	.	.
.	16e/	.	.	.	.	.	.	.	.	.	.	.	.	.	.	.	.	.	.	.	.	.
.	16gn/	.	.	.	.	.	.	.	.	.	.	.	.	.	.	.	.	.	.	.	.	>
.	16e/	.	.	.	.	.	.	.	.	.	.	.	.	.	.	.	.	.	.	.	.	.
.	16c#/JJ	.	.	.	.	.	.	.	.	.	.	.	.	.	.	.	.	.	.	.	.	.
.	16G/LL	.	.	.	.	.	.	.	.	.	8c#/L]	.	.	8cc#/L]	[4.B\	.	.	.	8ee\L]	.	4bb\	.
.	16B/	.	.	.	.	.	.	.	.	.	.	.	.	.	.	.	.	.	.	.	.	.
.	16d/	.	.	.	.	.	.	.	.	.	8d/	.	.	8dd/	.	.	.	.	8dd\	.	.	.
.	16g/	.	.	.	.	.	.	.	.	.	.	.	.	.	.	.	.	.	.	.	.	.
.	16d/	.	.	.	.	.	.	.	.	.	8Gn/J)	.	.	8gX/J	.	.	.	.	8gn\J	]	8b\	]
.	16B/JJ	.	.	.	.	.	.	.	.	.	.	.	] p	.	.	]	.	.	.	.	.	.
=24	=24	=24	=24	=24	=24	=24	=24	=24	=24	=24	=24	=24	=24	=24	=24	=24	=24	=24	=24	=24	=24	=24
!	!	!	!	!	!	!	!	!	!	!	!	!	!	!	!	!LO:DY:a	!	!	!	!	!	!
2.ryy	16Gn/	.	4r	.	2.r	.	2.r	.	2.r	.	[2.Gn/	2.GGnX_\	.	[4.b/)	4.B\_	p	2.r	.	[4.b\)	p	[4.dd\)	p
!	!LO:TX:t=P:problem=mixed beam	!	!	!	!	!	!	!	!	!	!	!	!	!	!	!	!	!	!	!	!	!
.	16D</LL	.	.	.	.	.	.	.	.	.	.	.	.	.	.	.	.	.	.	.	.	.
.	16Gn</	.	.	.	.	.	.	.	.	.	.	.	.	.	.	.	.	.	.	.	.	.
.	16B</	.	.	.	.	.	.	.	.	.	.	.	.	.	.	.	.	.	.	.	.	.
.	16d\	.	8r	.	.	.	.	.	.	.	.	.	.	.	.	.	.	.	.	.	.	.
.	16gny\JJ	.	.	.	.	.	.	.	.	.	.	.	.	.	.	.	.	.	.	.	.	.
.	16b/LL	.	4r	.	.	.	.	.	.	.	.	.	.	4b/]	4B\]	.	.	.	4b\]	.	4dd\]	.
.	16g/	.	.	.	.	.	.	.	.	.	.	.	.	.	.	.	.	.	.	.	.	.
.	16b/	.	.	.	.	.	.	.	.	.	.	.	.	.	.	.	.	.	.	.	.	.
.	16dd/	.	.	.	.	.	.	.	.	.	.	.	.	.	.	.	.	.	.	.	.	.
!	!	!	!	!	!	!	!	!	!	!	!	!	!	!	!	!	!	!	!	!LO:DY:t=pp	!	!LO:DY:t=pp
.	16ggny/	.	16r	.	.	.	.	.	.	.	.	.	.	16r	8r	.	.	.	16r	pp	16r	pp
.	16bb/JJ	.	64Ree/LLLL	pp	.	.	.	.	.	.	.	.	.	(32b/LLL	.	.	.	.	(32bb\LLL	.	(32bb\LLL	.
.	.	.	64Ree/	.	.	.	.	.	.	.	.	.	.	.	.	.	.	.	.	.	.	.
.	.	.	64Ree/	.	.	.	.	.	.	.	.	.	.	32gX/JJJ	.	.	.	.	32ggn\JJJ	.	32ggn\JJJ	.
.	.	.	64Ree/JJJJ	.	.	.	.	.	.	.	.	.	.	.	.	.	.	.	.	.	.	.
=25	=25	=25	=25	=25	=25	=25	=25	=25	=25	=25	=25	=25	=25	=25	=25	=25	=25	=25	=25	=25	=25	=25
!	!LO:TX:t=P:problem=mixed beam	!	!	!	!	!	!	!	!	!	!	!	!	!	!	!	!	!	!	!	!	!
4Gn\	16Gn</LL	.	8Ree/	.	2.r	.	2.ryy	.	2.ryy	.	8G/]	(4.GG\]	.	8b/)	8rd	.	2.r	.	8ee\)	.	8ee\)	.
.	16B</	.	.	.	.	.	.	.	.	.	.	.	.	.	.	.	.	.	.	.	.	.
.	16e\	.	8r	.	.	.	.	.	.	.	8r	.	.	8r	8rd	.	.	.	8r	.	8r	.
.	16b\	.	.	.	.	.	.	.	.	.	.	.	.	.	.	.	.	.	.	.	.	.
8ryy	16e\	.	8Ree/	.	.	.	.	.	.	.	(<8G#X/	.	.	8b 8e/	8ryy	.	.	.	8ee|\	.	8ee|\	.
.	16B</JJ	.	.	.	.	.	.	.	.	.	.	.	.	.	.	.	.	.	.	.	.	.
!	!LO:TX:t=P:problem=mixed beam	!	!	!	!	!	!	!	!	!	!	!	!	!	!	!	!	!	!	!	!	!
4A\	16A</LL	.	8Ree/	.	.	.	.	.	.	.	8A/)	4.AA\	.	(4b 4d#X/	4ryy	.	.	.	(4dd#X\	.	(4ff#\	.
.	16B</	.	.	.	.	.	.	.	.	.	.	.	.	.	.	.	.	.	.	.	.	.
.	16f#\	.	8r	.	.	.	.	.	.	.	8r	.	.	.	.	.	.	.	.	.	.	.
.	16b\	.	.	.	.	.	.	.	.	.	.	.	.	.	.	.	.	.	.	.	.	.
8ryy	16f#\	.	8Ree/	.	.	.	.	.	.	.	(<8A/	.	.	8b 8f#/	8ryy	.	.	.	8ff#\	.	8dd#X\	.
.	16B</JJ	.	.	.	.	.	.	.	.	.	.	.	.	.	.	.	.	.	.	.	.	.
*	*	*	*	*	*	*	*	*	*	*	*	*	*	*v	*v	*	*	*	*	*	*	*
=26	=26	=26	=26	=26	=26	=26	=26	=26	=26	=26	=26	=26	=26	=26	=26	=26	=26	=26	=26	=26	=26
!	!LO:TX:t=P:problem=mixed beam	!	!	!	!	!	!	!	!	!	!	!	!	!	!	!	!	!	!	!	!
4Gn\	16Gn</LL	.	4.Reett/	.	2.r	.	2.ryy	.	2.ryy	.	8B/)	8GGn\)	.	8b 8e/)	.	2.r	.	[4.ee\)	.	[4.ee\)	.
.	16B</	.	.	.	.	.	.	.	.	.	.	.	.	.	.	.	.	.	.	.	.
.	16e\	.	.	.	.	.	.	.	.	.	8r	8ryy	.	8r	.	.	.	.	.	.	.
.	16gn\	.	.	.	.	.	.	.	.	.	.	.	.	.	.	.	.	.	.	.	.
8ryy	16a\	.	.	.	.	.	.	.	.	.	8B'/	8Gn\	.	8b 8e'/	.	.	.	.	.	.	.
.	16g\JJ	.	.	.	.	.	.	.	.	.	.	.	.	.	.	.	.	.	.	.	.
4ryy	16ee\LL	.	8Ree/	.	.	.	.	.	.	.	8B'/	8G\	.	8b 8e'/	.	.	.	4ee\]	.	8ee\]	.
.	16b\	.	.	.	.	.	.	.	.	.	.	.	.	.	.	.	.	.	.	.	.
.	16g\	.	8r	.	.	.	.	.	.	.	8r	8ryy	.	8r	.	.	.	.	.	8r	.
.	16e\	.	.	.	.	.	.	.	.	.	.	.	.	.	.	.	.	.	.	.	.
8ryy	16b\	.	16r	.	.	.	.	.	.	.	8r	8ryy	.	8r	.	.	.	8r	.	(16bb\LL	.
.	16g\JJ	.	64Ree/LLLL	.	.	.	.	.	.	.	.	.	.	.	.	.	.	.	.	16ggn\JJ	.
.	.	.	64Ree/	.	.	.	.	.	.	.	.	.	.	.	.	.	.	.	.	.	.
.	.	.	64Ree/	.	.	.	.	.	.	.	.	.	.	.	.	.	.	.	.	.	.
.	.	.	64Ree/JJJJ	.	.	.	.	.	.	.	.	.	.	.	.	.	.	.	.	.	.
*	*	*	*	*	*	*	*	*	*	*	*v	*v	*	*	*	*	*	*	*	*	*
=27	=27	=27	=27	=27	=27	=27	=27	=27	=27	=27	=27	=27	=27	=27	=27	=27	=27	=27	=27	=27
*	*^	*	*	*	*	*	*	*	*	*	*	*	*	*	*^	*	*	*	*	*
!	!	!LO:TX:t=P:problem=mixed beam	!	!	!	!	!	!	!	!	!	!	!	!	!	!	!	!LO:DY:t=pp	!	!	!	!
4Gn\	4e/	16Gn</LL	.	4Ree/	.	2.ryy	.	2.ryy	.	2.ryy	.	8r	.	2.ryy	.	8r	8ryy	pp	2.r	.	8ee\)	.
.	.	16B</	.	.	.	.	.	.	.	.	.	.	.	.	.	.	.	.	.	.	.	.
.	.	16e\	.	.	.	.	.	.	.	.	.	8r	.	.	.	8r	8ryy	.	.	.	8r	.
.	.	16gny\	.	.	.	.	.	.	.	.	.	.	.	.	.	.	.	.	.	.	.	.
!	!	!	!	!	!	!	!	!	!	!	!	!	!	!	!	!	!	!	!	!	!LO:TX:a:t=P:problem=wykreślone nuty	!
8ryy	8ryy	16b\	.	8ryy	.	.	.	.	.	.	.	8B 8Gn\	.	.	.	8ee/	8b\	.	.	.	8ryy	.
.	.	16g\JJ	.	.	.	.	.	.	.	.	.	.	.	.	.	.	.	.	.	.	.	.
!	!	!LO:TX:t=P:problem=mixed beam	!	!	!	!	!	!	!	!	!	!	!	!	!	!	!	!	!	!	!	!
4G\	4e/	16G</LL	.	4ryy	.	.	.	.	.	.	.	8B 8G\	.	.	.	(4ee/	4b\	.	.	.	4ryy	.
.	.	16B</	.	.	.	.	.	.	.	.	.	.	.	.	.	.	.	.	.	.	.	.
.	.	16e\	.	.	.	.	.	.	.	.	.	8r	.	.	.	.	.	.	.	.	.	.
.	.	16g\	.	.	.	.	.	.	.	.	.	.	.	.	.	.	.	.	.	.	.	.
8ryy	8ryy	16a\	.	8ryy	.	.	.	.	.	.	.	8B 8G\	.	.	.	8dd/)	8b\	.	.	.	8ryy	.
.	.	16e\JJ	.	.	.	.	.	.	.	.	.	.	.	.	.	.	.	.	.	.	.	.
*	*v	*v	*	*	*	*	*	*	*	*	*	*	*	*	*	*	*	*	*	*	*	*
!!LO:PB:g=original
=28	=28	=28	=28	=28	=28	=28	=28	=28	=28	=28	=28	=28	=28	=28	=28	=28	=28	=28	=28	=28	=28
*	*	*	*	*	*	*	*	*	*	*	*^	*	*	*	*	*	*	*	*	*	*
!	!LO:TX:t=P:problem=mixed beam	!	!	!	!	!	!	!	!	!	!	!	!	!	!	!	!	!LO:DY:rj	!	!	!LO:TX:a:t=P:problem=tt. 28-37 jakby przekreślone czerwoną kredką	!
4Gn\	16Gn</LL	.	2.ryy	.	2.ryy	.	2.ryy	.	(>2.e/	sf	2.B-X/	2.Gn\	f	2.r	.	(4.dd/	2.b-X\	f >	2.ryy	.	2.ryy	.
.	16e\	.	.	.	.	.	.	.	.	.	.	.	.	.	.	.	.	.	.	.	.	.
.	16gny\	.	.	.	.	.	.	.	.	.	.	.	.	.	.	.	.	.	.	.	.	.
!	!	!	!	!	!	!	!	!	!	!LO:HP:a	!	!	!	!	!	!	!	!	!	!	!	!
.	16e\	.	.	.	.	.	.	.	.	>	.	.	.	.	.	.	.	.	.	.	.	.
8ryy	16d\	.	.	.	.	.	.	.	.	.	.	.	.	.	.	.	.	.	.	.	.	.
.	16e\JJ	.	.	.	.	.	.	.	.	.	.	.	.	.	.	.	.	.	.	.	.	.
4ryy	16c#/LL	.	.	.	.	.	.	.	.	.	.	.	.	.	.	4.cc#X/	.	.	.	.	.	.
.	16e/	.	.	.	.	.	.	.	.	.	.	.	.	.	.	.	.	.	.	.	.	.
.	16a/	.	.	.	.	.	.	.	.	.	.	.	.	.	.	.	.	.	.	.	.	.
.	16cc#/J	.	.	.	.	.	.	.	.	.	.	.	.	.	.	.	.	.	.	.	.	.
8ryy	8ee/J	.	.	.	.	.	.	.	.	]	.	.	.	.	.	.	.	] p	.	.	.	.
=29	=29	=29	=29	=29	=29	=29	=29	=29	=29	=29	=29	=29	=29	=29	=29	=29	=29	=29	=29	=29	=29	=29
*	*	*	*	*	*	*	*	*	*	*	*	*	*	*^	*	*	*	*	*	*	*	*
!	!	!	!	!	!	!	!	!LO:DY:t=p.	!	!LO:DY:t=pp	!	!	!	!	!	!	!	!	!	!	!	!	!
4F# 4FF#/	8r	p	2.ryy	.	2.ryy	.	8r	p	8d/L)	pp	4A/	4F#\	.	[4.a/	[2.d\	.	8dd/)	8a\	.	2.ryy	.	8r	.
.	8dL 8A/	.	.	.	.	.	8A'/L	.	8A 8D'/	.	.	.	.	.	.	.	8r	8ryy	.	.	.	8r	.
8r	8aJ 8d/	.	.	.	.	.	8A'/J	.	8dJ 8D'/	.	8r	8ryy	.	.	.	.	8r	8ryy	.	.	.	8aa\	p
4D 4DD/	8r	.	.	.	.	.	8r	.	8r	.	4D/	4D\	.	8a/L]	.	.	4r	4ryy	.	.	.	(8aa\L	.
!	!	!	!	!	!	!	!	!	!	!	!	!	!	!LO:TX:a:t=cres-cen-:ext=cd:problem=dynamics with extention lines	!	!LO:HP:a:t=cres-cen-	!	!	!	!	!	!	!
.	8f#L 8d 8A/	.	.	.	.	.	8F#X'/L	.	8AL 8D/	.	.	.	.	8b/	.	<	.	.	.	.	.	8bb\	.
8r	8aJ 8f# 8d/	.	.	.	.	.	8F#'/J	.	8dJ 8A/	.	8r	8ryy	.	8ccX/J	.	.	8r	8ryy	.	.	.	8cccn\J)	.
*	*	*	*	*	*	*	*	*	*	*	*	*	*	*	*	*	*v	*v	*	*	*	*	*
=30	=30	=30	=30	=30	=30	=30	=30	=30	=30	=30	=30	=30	=30	=30	=30	=30	=30	=30	=30	=30	=30	=30
!	!LO:TX:b:t=cres-cen-do.:ext=cd:problem=dynamics with extention lines	!LO:HP:t=cres-cen-do.	!	!	!	!	!	!	!	!	!	!	!	!	!	!	!	!	!	!	!	!
4Gn 4GGn/	8r	<	2.ryy	.	2.ryy	.	8r	.	8r	.	4Gn/	4Gn\	.	(4ccX/	2.d\]	.	2.r	.	4r	.	(4cccn^\	.
.	8gnL 8d 8B/	.	.	.	.	.	8G'/L	.	8GL 8D/	.	.	.	.	.	.	.	.	.	.	.	.	.
8r	8bJ 8g 8d/	.	.	.	.	.	8G'/J	.	8dJ 8BX/	.	8r	8ryy	.	8b/)	.	.	.	.	8r	.	8bb\	.
*rep	*rep	*	*	*	*	*	*	*	*	*	*	*	*	*	*	*	*	*	*	*	*	*
4G 4GG/	8r	.	.	.	.	.	8r	.	8r	.	4G/	4G\	.	[4.b/	.	.	.	.	4r	.	4ddd\)	.
.	8gnL 8d 8B/	.	.	.	.	.	8G'/L	.	8BnXL 8D/	.	.	.	.	.	.	.	.	.	.	.	.	.
!	!	!	!	!	!	!	!	!	!	!	!	!	!LO:DY:t=piu. f.	!	!	!	!	!	!	!	!	!LO:DY:t=piu f
8r	8bJ 8g 8d/	.	.	.	.	.	8G'/J	.	8dJ 8B/	.	8r	8ryy	f	.	.	.	.	.	8ee\	mf	8eee\	f
*Xrep	*Xrep	*	*	*	*	*	*	*	*	*	*	*	*	*	*	*	*	*	*	*	*	*
=31	=31	=31	=31	=31	=31	=31	=31	=31	=31	=31	=31	=31	=31	=31	=31	=31	=31	=31	=31	=31	=31	=31
4Gn 4GGn/	8r	.	2.ryy	.	2.ryy	.	8r	.	8r	.	4Gn/	4Gn\	.	4.b/_	2.e\	.	2.r	.	(4ee^\	.	4eee\	.
.	8eL 8B/	.	.	.	.	.	8BX/L	.	8BXL 8E/	.	.	.	.	.	.	.	.	.	.	.	.	.
8r	8bJ 8e/	.	.	.	.	.	8B/J	.	8eJ 8BnX/	.	8r	8ryy	.	.	.	[	.	.	8b\)	.	8bb\	.
4G#X 4GG#X/	8r	.	.	.	.	.	8r	.	8r	.	4G#X/	4G#\	.	8b/L]	.	.	.	.	(8b\L	.	(8bb\L	.
.	8eL 8d 8B/	.	.	.	.	.	8B'/L	.	8BL 8E/	.	.	.	.	8cc#X/	.	.	.	.	8cc#X\	.	8ccc#X\	.
!	!	!	!	!	!	!	!	!	!	!	!	!	!	!	!	!	!	!	!	!	!LO:TX:a:t=P:problem=czerwona kreska taktowa we wszystkich głosach	!
8r	8bJ 8e 8d/	.	.	.	.	.	8d'/J	.	8eJ 8B/	.	8r	8ryy	.	8dd/J	.	.	.	.	8dd\J)	.	8ddd\J)	.
=32	=32	=32	=32	=32	=32	=32	=32	=32	=32	=32	=32	=32	=32	=32	=32	=32	=32	=32	=32	=32	=32	=32
*	*	*	*	*	*	*	*^	*	*	*	*	*	*	*	*	*	*^	*	*	*	*	*
!	!	!	!	!	!	!	!	!	!	!	!	!	!	!	!LO:TX:b:t=P:problem=akcent pomiędzy nutami	!	!	!	!	!	!	!	!	!
4A 4AA/	8r	.	2.ryy	.	2.ryy	.	8r	4rD	.	8r	.	4A/	4A\	.	4.dd^</	2.e\	.	4r	4ryy	.	(4.dd^\	.	(4.ddd^\	.
.	8aL 8e 8c#X/	.	.	.	.	.	8A'</L	.	.	8AL 8E/	.	.	.	.	.	.	.	.	.	.	.	.	.	.
8r	8cc#J 8a 8e/	.	.	.	.	.	8A'</J	8r	.	8eJ 8c#X/	.	8r	8ryy	.	.	.	.	8r	8ryy	.	.	.	.	.
*rep	*rep	*	*	*	*	*	*	*	*	*rep	*	*	*	*	*	*	*	*	*	*	*	*	*	*
4A 4AA/	8r	.	.	.	.	.	8r	8rD	.	8r	.	4A/	4A\	.	8cc#/	.	.	4r	4ryy	.	8cc#\)	.	8ccc#\)	.
.	8aL 8e 8c#X/	[	.	.	.	.	8A'/L	8r	.	8AL 8E/	.	.	.	.	8r	.	.	.	.	.	8r	.	8r	.
!	!	!	!	!	!	!	!	!	!LO:DY:rj	!	!	!	!	!	!	!	!	!	!	!	!	!LO:DY:rj	!	!LO:DY:rj
8r	8cc#J 8a 8e/	.	.	.	.	.	8c#X/J	8F#X\	f	8eJ 8c#X/	f	8r	8ryy	f	8cc#/	.	f	8ff#/	8ff#\	f	8ff#'\	f	8ccc#|\	f
*Xrep	*Xrep	*	*	*	*	*	*	*	*	*Xrep	*	*	*	*	*	*	*	*	*	*	*	*	*	*
=33	=33	=33	=33	=33	=33	=33	=33	=33	=33	=33	=33	=33	=33	=33	=33	=33	=33	=33	=33	=33	=33	=33	=33	=33
!	!	!LO:DY:rj	!	!	!	!	!	!	!	!	!	!	!LO:N:vis=4	!	!	!	!	!	!	!	!	!	!	!
4A 4F# 4C# 4AA/	8r	ff	2.ryy	.	2.ryy	.	2.c#X/	2.F#X\	.	8r	.	4.A/	4.A\	.	[4.cc#^/	4.f#\	.	(>4ff#^/	(>4ff#\	.	(4ff#^\	.	(4ccc#^\	.
.	8f#L 8c#/	.	.	.	.	.	.	.	.	8c#XL 8F#X/	.	.	.	.	.	.	.	.	.	.	.	.	.	.
8r	8cc#J 8f#/	.	.	.	.	.	.	.	.	8f#XJ 8c#/	.	.	.	.	.	.	.	8cc#/)	8cc#\)	.	8cc#\)	.	8ff#\)	.
*	*rep	*	*	*	*	*	*	*	*	*rep	*	*	*	*	*	*	*	*	*	*	*	*	*	*
!	!	!	!	!	!	!	!	!	!	!	!	!	!LO:N:vis=4	!	!	!	!	!	!	!	!	!	!	!
4A#X 4F# 4C# 4AA#X/	8r	.	.	.	.	.	.	.	.	8r	.	4.A#X/	4.A#\	.	8.cc#/L]	4.f#^\	.	8.cc#/L	8.cc#\L	.	8.cc#\L	.	4ff#\	.
.	8f#L 8c#/	.	.	.	.	.	.	.	.	8c#XL 8F#X/	.	.	.	.	.	.	.	.	.	.	.	.	.	.
.	.	.	.	.	.	.	.	.	.	.	.	.	.	.	16ddn/K	.	.	16ddn/K	16ddn\K	.	16ddn\K	.	.	.
8r	8cc#J 8f#/	.	.	.	.	.	.	.	.	8f#XJ 8c#/	.	.	.	.	8ee/J	.	.	8ee/J	8ee\J	.	8ee\J	.	8ff#\	.
*	*Xrep	*	*	*	*	*	*	*	*	*Xrep	*	*	*	*	*	*	*	*	*	*	*	*	*	*
*	*	*	*	*	*	*	*v	*v	*	*	*	*	*	*	*	*	*	*v	*v	*	*	*	*	*
=34	=34	=34	=34	=34	=34	=34	=34	=34	=34	=34	=34	=34	=34	=34	=34	=34	=34	=34	=34	=34	=34	=34
!	!	!	!	!	!LO:TX:t=P:problem=partia tmb i kotłów zapisana na jednej linii	!	!	!	!	!	!	!	!	!	!	!	!	!	!	!	!	!
4B 4F# 4BB/	8r	.	4r	.	4r	.	8BX 8F#X/	.	8r	.	[>4.B/	[>4.B\	.	(4.ee/	[4.f#\	.	4.ee 4.cc#\	>	(4.ee\	>	[4.ff#\	>
.	8f#L 8c#/	>	.	.	.	.	8r	.	8c#XL 8F#X/	.	.	.	.	.	.	.	.	.	.	.	.	.
8r	8f#J 8e 8c#/	]	8r	.	8r	.	8r	.	8f#XJ 8c#X/	.	.	.	.	.	.	.	.	.	.	.	.	.
4BB/	8r	p	4r	pp	4r	pp	4r	.	8r	.	4B/]	4B\]	.	4dd/)	4f#\]	.	4dd 4b\	]	4dd\)	]	8ff#\]	]
!	!	!	!	!	!	!	!	!	!	!LO:DY:a	!	!	!	!	!	!	!	!	!	!	!	!
.	8f#L 8d/	.	.	.	.	.	.	.	8BXL 8F#'/	pp	.	.	.	.	.	.	.	.	.	.	8.r	pp
8r	8ddJ 8d/	.	16ryy	.	8D\	.	8r	.	8dJ 8BnX'/	.	8r	8ryy	.	16r	8ryy	.	8r	.	8r	.	.	.
.	.	.	64Ree/LLLL	.	.	.	.	.	.	.	.	.	.	(32dd/LLL	.	.	.	.	.	.	(32ddd\LLL	.
.	.	.	64Ree/	.	.	.	.	.	.	.	.	.	.	.	.	.	.	.	.	.	.	.
.	.	.	64Ree/	.	.	.	.	.	.	.	.	.	.	32b/JJJ)	.	.	.	.	.	.	32bb\JJJ)	.
.	.	.	64Ree/JJJJ	.	.	.	.	.	.	.	.	.	.	.	.	.	.	.	.	.	.	.
!!LO:LB:g=original
=35	=35	=35	=35	=35	=35	=35	=35	=35	=35	=35	=35	=35	=35	=35	=35	=35	=35	=35	=35	=35	=35	=35
*	*	*	*	*	*	*	*	*	*	*	*	*	*	*	*	*	*^	*	*	*	*	*
!	!	!LO:DY:t=p.	!	!	!	!	!	!	!	!	!	!LO:N:vis=4	!	!	!	!	!	!	!	!	!	!	!
8r	8r	p	8Ree/	.	8D\	.	2.r	.	2.r	.	4.BB/	4.BB\	.	8gX/	8ryy	.	8r	2.r	.	2.r	.	8ggn\	.
8BL 8Gn 8D\	8gnL 8d/	.	8r	.	8r	.	.	.	.	.	.	.	.	8r	8ryy	.	8r	.	.	.	.	8r	.
8BJ 8G\	8ddJ 8g 8d/	.	8r	.	8D\	.	.	.	.	.	.	.	.	8g/	8d\	.	8dd'</	.	pp	.	.	8gg\	.
8r	8r	.	4r	.	8D\	.	.	.	.	.	8AA/L	8AA\L	.	4f#/	8d\	.	8dd'</	.	.	.	.	(4ff#\	.
8AL 8F# 8D\	8aL 8f# 8d/	.	.	.	8r	.	.	.	.	.	8GG#/	8GG#\	.	.	8r	.	8r	.	.	.	.	.	.
8dJ 8A 8F#\	8ddJ 8a 8f#/	.	8r	.	8D\	.	.	.	.	.	8AA/J	8AA\J	.	8a/	8d\	.	8dd/	.	.	.	.	8aa\	.
=36	=36	=36	=36	=36	=36	=36	=36	=36	=36	=36	=36	=36	=36	=36	=36	=36	=36	=36	=36	=36	=36	=36	=36
!	!	!	!	!	!	!	!	!	!	!	!	!LO:N:vis=4	!	!	!	!	!	!	!	!	!	!	!
8r	8r	.	2.r	.	4.DTT\	.	2.r	.	2.r	.	[>4.BB/	[>4.BB\	.	8gX/	8d\	.	8dd/	2.r	.	2.r	.	[4.ggn\)	.
8BL 8Gn 8D\	8bL 8gn 8d/	.	.	.	.	.	.	.	.	.	.	.	.	8r	8ryy	.	8r	.	.	.	.	.	.
8dJ 8B 8G\	8ddJ 8b 8g/	.	.	.	.	.	.	.	.	.	.	.	.	16g|/LL	16d\LL	.	16dd'/LL	.	.	.	.	.	.
.	.	.	.	.	.	.	.	.	.	.	.	.	.	16g|/JJ	16d\JJ	.	16dd'/JJ	.	.	.	.	.	.
8g#L 8d 8B\	8ggnL 8dd 8b\	.	.	.	8D\	.	.	.	.	.	4BB/]	4BB\]	.	8g|/	8d\	.	4dd/	.	.	.	.	4gg\]	.
8d 8B 8G\	8dd 8b 8g\	.	.	.	8r	.	.	.	.	.	.	.	.	8r	8ryy	.	.	.	.	.	.	.	.
8BJ 8G 8D\	8bJ 8g 8d\	.	.	.	8r	.	.	.	.	.	8D/	8D\	.	8r	8ryy	.	(<16dd/LL	.	.	.	.	8r	.
.	.	.	.	.	.	.	.	.	.	.	.	.	.	.	.	.	16b/JJ	.	.	.	.	.	.
*	*	*	*	*	*	*	*	*	*	*	*	*	*	*v	*v	*	*	*	*	*	*	*	*
=37	=37	=37	=37	=37	=37	=37	=37	=37	=37	=37	=37	=37	=37	=37	=37	=37	=37	=37	=37	=37	=37	=37
8r	8r	.	2.r	.	2.r	.	2.r	.	2.r	.	4.E^/	4.E\	.	4r	.	4gn/)	2.r	.	2.r	.	2.r	.
8GnL 8D\	8gnL 8d/	.	.	.	.	.	.	.	.	.	.	.	.	.	.	.	.	.	.	.	.	.
8dJ 8G\	8ddJ 8g/	.	.	.	.	.	.	.	.	.	.	.	.	8r	.	8g/	.	.	.	.	.	.
*rep	*rep	*	*	*	*	*	*	*	*	*	*	*	*	*	*	*	*	*	*	*	*	*
8r	8r	.	.	.	.	.	.	.	.	.	4D/	4D\	.	(>[>4.GX^/	.	(<4g^</	.	.	.	.	.	.
8GnL 8D\	8gnL 8d/	.	.	.	.	.	.	.	.	.	.	.	.	.	p	.	.	.	.	.	.	.
8dJ 8G\	8ddJ 8g/	.	.	.	.	.	.	.	.	.	8GGn/	8GGn\	.	.	.	8f#/)	.	.	.	.	.	.
*Xrep	*Xrep	*	*	*	*	*	*	*	*	*	*	*	*	*	*	*	*	*	*	*	*	*
*	*	*	*	*	*	*	*	*	*	*	*	*	*	*	*	*v	*v	*	*	*	*	*
=38	=38	=38	=38	=38	=38	=38	=38	=38	=38	=38	=38	=38	=38	=38	=38	=38	=38	=38	=38	=38	=38
8r	8r	.	2.ryy	.	2.ryy	.	2.r	.	(>2.d/	.	([>4.BB/	([>4.BB\	.	4.G/]	.	(4.f#/	.	2.r	.	2.r	.
!LO:ACC:color=blue	!LO:ACC:color=blue	!	!	!	!	!	!	!	!	!	!	!	!	!	!	!	!	!	!	!	!
8BL 8Dn\	8bL 8dn/	.	.	.	.	.	.	.	.	.	.	.	.	.	.	.	.	.	.	.	.
8dJ 8B\	8ddJ 8b/	.	.	.	.	.	.	.	.	.	.	.	.	.	.	.	.	.	.	.	.
*rep	*rep	*	*	*	*	*	*	*	*	*	*	*	*	*	*	*	*	*	*	*	*
8r	8r	.	.	.	.	.	.	.	.	.	8BB/L]	8BB\L]	.	4.G#/)	.	8e#X/)	.	.	.	.	.
8BL 8D\	8bL 8d/	.	.	.	.	.	.	.	.	.	8G#X/	8GG#X\	.	.	.	8r	.	.	.	.	.
8dJ 8B\	8ddJ 8b/	.	.	.	.	.	.	.	.	.	8F#/J	8FF#\J	.	.	.	8r	.	.	.	.	.
*Xrep	*Xrep	*	*	*	*	*	*	*	*	*	*	*	*	*	*	*	*	*	*	*	*
*	*	*	*	*	*	*	*	*	*	*	*v	*v	*	*	*	*	*	*	*	*	*
=39||	=39||	=39||	=39||	=39||	=39||	=39||	=39||	=39||	=39||	=39||	=39||	=39||	=39||	=39||	=39||	=39||	=39||	=39||	=39||	=39||
*	*	*	*	*	*	*	*	*	*	*	*k[f#c#g#d#a#e#]	*	*k[f#c#g#d#a#e#]	*	*k[f#c#g#d#a#e#]	*	*k[f#c#g#d#a#e#]	*	*k[f#c#g#d#a#e#]	*
*	*	*	*	*	*	*	*	*	*	*	*^	*	*^	*	*	*	*	*	*	*
!	!	!	!	!	!	!	!	!	!	!	!LO:TX:a:t=P:problem=znaki F# C# G# D# AA# E#	!	!	!LO:TX:a:t=P:problem=znaki f# c# g#	!	!	!LO:TX:a:t=P:problem=znaki f# cc# g# dd# a# ee#	!	!LO:TX:a:t=P:problem=znaki f# cc# g# dd# a# ee#	!	!LO:TX:a:t=P:problem=znaki f# cc# g# dd# a# ee#	!
!LO:ACC:color=blue	!	!	!	!	!	!	!	!	!	!	!	!	!LO:DY:rj	!	!	!LO:DY:rj	!	!	!	!	!LO:TX:b:t=dolce	!
4C#X 4CC#X/	16r	f	2.ryy	.	2.ryy	.	2.ryy	.	[>2.c#X/)	.	4E# 4EE#/))	4ryy	p	2.g#/	2.B\	p	2.r	.	2.r	.	(4ccc#\	.
.	16c#/LL	.	.	.	.	.	.	.	.	.	.	.	.	.	.	.	.	.	.	.	.	.
!	!LO:ACC:color=blue	!	!	!	!	!	!	!	!	!	!	!	!	!	!	!	!	!	!	!	!	!
.	16g#X/	.	.	.	.	.	.	.	.	.	.	.	.	.	.	.	.	.	.	.	.	.
.	16cc#/	.	.	.	.	.	.	.	.	.	.	.	.	.	.	.	.	.	.	.	.	.
8r	16g#/	.	.	.	.	.	.	.	.	.	8r	8ryy	.	.	.	.	.	.	.	.	8gg#\)	.
.	16c#/JJ	.	.	.	.	.	.	.	.	.	.	.	.	.	.	.	.	.	.	.	.	.
*rep	*rep	*	*	*	*	*	*	*	*	*	*	*	*	*	*	*	*	*	*	*	*	*
4C# 4CC#/	16r	.	.	.	.	.	.	.	.	.	4C#/	4C#\	.	.	.	.	.	.	.	.	(8gg#\L	.
.	16c#/LL	.	.	.	.	.	.	.	.	.	.	.	.	.	.	.	.	.	.	.	.	.
.	16g#/	.	.	.	.	.	.	.	.	.	.	.	.	.	.	.	.	.	.	.	8aa#\	.
.	16cc#/	.	.	.	.	.	.	.	.	.	.	.	.	.	.	.	.	.	.	.	.	.
8r	16g#/	.	.	.	.	.	.	.	.	.	8r	8ryy	.	.	.	.	.	.	.	.	8bb\J)	.
.	16c#/JJ	.	.	.	.	.	.	.	.	.	.	.	.	.	.	.	.	.	.	.	.	.
*Xrep	*Xrep	*	*	*	*	*	*	*	*	*	*	*	*	*	*	*	*	*	*	*	*	*
=40	=40	=40	=40	=40	=40	=40	=40	=40	=40	=40	=40	=40	=40	=40	=40	=40	=40	=40	=40	=40	=40	=40
*rep	*	*	*	*	*	*	*	*	*rep	*	*	*	*	*	*	*	*	*	*	*	*	*
!LO:ACC:color=blue	!	!	!	!	!	!	!	!	!	!	!	!	!	!	!	!	!	!	!	!	!	!
4C#X 4CC#X/	16r	.	2.ryy	.	2.ryy	.	2.ryy	.	2.c#/_>	.	4F#/	4F#\	.	2.f#/	2.A#\	.	2.r	.	2.r	.	(4bb\	.
.	16c#/LL	.	.	.	.	.	.	.	.	.	.	.	.	.	.	.	.	.	.	.	.	.
.	16f#/	.	.	.	.	.	.	.	.	.	.	.	.	.	.	.	.	.	.	.	.	.
.	16cc#/	.	.	.	.	.	.	.	.	.	.	.	.	.	.	.	.	.	.	.	.	.
8r	16f#/	.	.	.	.	.	.	.	.	.	8r	8ryy	.	.	.	.	.	.	.	.	8aa#\	.
.	16c#/JJ	.	.	.	.	.	.	.	.	.	.	.	.	.	.	.	.	.	.	.	.	.
*	*rep	*	*	*	*	*	*	*	*	*	*	*	*	*	*	*	*	*	*	*	*	*
4C# 4CC#/	16r	.	.	.	.	.	.	.	.	.	4C#/	4C#\	.	.	.	.	.	.	.	.	8ccc#\)	.
.	16c#/LL	.	.	.	.	.	.	.	.	.	.	.	.	.	.	.	.	.	.	.	.	.
.	16f#/	.	.	.	.	.	.	.	.	.	.	.	.	.	.	.	.	.	.	.	8r	.
.	16cc#/	.	.	.	.	.	.	.	.	.	.	.	.	.	.	.	.	.	.	.	.	.
8r	16f#/	.	.	.	.	.	.	.	.	.	8r	8ryy	.	.	.	.	.	.	.	.	8ddd#\	.
.	16c#/JJ	.	.	.	.	.	.	.	.	.	.	.	.	.	.	.	.	.	.	.	.	.
*Xrep	*Xrep	*	*	*	*	*	*	*	*Xrep	*	*	*	*	*	*	*	*	*	*	*	*	*
!!LO:PB:g=original
=41	=41	=41	=41	=41	=41	=41	=41	=41	=41	=41	=41	=41	=41	=41	=41	=41	=41	=41	=41	=41	=41	=41
*rep	*	*	*	*	*	*	*	*	*	*	*	*	*	*	*	*	*	*	*	*	*	*
!	!	!	!	!	!	!	!	!	!LO:TX:b:t=P:problem=zakończenie ligatury nie wyświetla się dobrze z powodu rep	!	!	!	!	!LO:TX:b:t=P:problem=akcent pomiędzy nutami	!	!	!	!	!	!	!	!
4C# 4CC#/	16r	.	2.r	.	2.r	.	2.r	.	2.c#X/_>	.	4E#/	4E#\	.	(4dd#^</	2.B\	.	2.ryy	.	2.ryy	.	(4ddd#\	.
.	16c#/LL	.	.	.	.	.	.	.	.	.	.	.	.	.	.	.	.	.	.	.	.	.
.	16g#/	.	.	.	.	.	.	.	.	.	.	.	.	.	.	.	.	.	.	.	.	.
.	16cc#/	.	.	.	.	.	.	.	.	.	.	.	.	.	.	.	.	.	.	.	.	.
8r	16g#/	.	.	.	.	.	.	.	.	.	8r	8ryy	.	8g#/)	.	.	.	.	.	.	8gg#\)	.
.	16c#/JJ	.	.	.	.	.	.	.	.	.	.	.	.	.	.	.	.	.	.	.	.	.
*	*rep	*	*	*	*	*	*	*	*	*	*	*	*	*	*	*	*	*	*	*	*	*
4C# 4CC#/	16r	.	.	.	.	.	.	.	.	.	4C#/	4C#\	.	(<8g#/L	.	.	.	.	.	.	(8gg#\L	.
.	16c#/LL	.	.	.	.	.	.	.	.	.	.	.	.	.	.	.	.	.	.	.	.	.
.	16g#/	.	.	.	.	.	.	.	.	.	.	.	.	8a#/)	.	.	.	.	.	.	8aa#\)	.
.	16cc#/	.	.	.	.	.	.	.	.	.	.	.	.	.	.	.	.	.	.	.	.	.
8r	16g#/	.	.	.	.	.	.	.	.	.	8r	8ryy	.	8b/J	.	.	.	.	.	.	8bb\J	.
!	!	!	!	!	!	!	!	!	!	!	!	!	!	!	!	!	!	!	!	!	!LO:TX:a:t=P:problem=czerwona kreska taktowa we wszystkich głosach	!
.	16c#/JJ	.	.	.	.	.	.	.	.	.	.	.	.	.	.	.	.	.	.	.	.	.
*Xrep	*Xrep	*	*	*	*	*	*	*	*	*	*	*	*	*	*	*	*	*	*	*	*	*
=42	=42	=42	=42	=42	=42	=42	=42	=42	=42	=42	=42	=42	=42	=42	=42	=42	=42	=42	=42	=42	=42	=42
*rep	*	*	*	*	*	*	*	*	*	*	*	*	*	*	*	*	*	*	*	*	*	*
!	!	!	!	!	!	!	!	!	!	!	!	!	!	!	!	!	!	!	!	!	!LO:TX:a:t=P:problem=tt. 42-46 przekreślone na czerwono	!
4C# 4CC#/	16r	.	2.r	.	2.r	.	2.r	.	2.c#/_>	.	4F#/	4F#\	.	(4.b/	2.A#\	.	2.ryy	.	2.ryy	.	4ryy	.
.	16c#/LL	.	.	.	.	.	.	.	.	.	.	.	.	.	.	.	.	.	.	.	.	.
.	16g#/	.	.	.	.	.	.	.	.	.	.	.	.	.	.	.	.	.	.	.	.	.
.	16cc#/	.	.	.	.	.	.	.	.	.	.	.	.	.	.	.	.	.	.	.	.	.
8r	16g#/	.	.	.	.	.	.	.	.	.	8r	8ryy	.	.	.	.	.	.	.	.	8ryy	.
.	16c#/JJ	.	.	.	.	.	.	.	.	.	.	.	.	.	.	.	.	.	.	.	.	.
4C# 4CC#/	16r	.	.	.	.	.	.	.	.	.	4C#/	4C#\	.	4a#/)	.	.	.	.	.	.	4ryy	.
.	16c#/LL	.	.	.	.	.	.	.	.	.	.	.	.	.	.	.	.	.	.	.	.	.
.	16f#/	.	.	.	.	.	.	.	.	.	.	.	.	.	.	.	.	.	.	.	.	.
.	16cc#/	.	.	.	.	.	.	.	.	.	.	.	.	.	.	.	.	.	.	.	.	.
8r	16f#/	.	.	.	.	.	.	.	.	.	8r	8ryy	.	(<16cc#/LL	.	.	.	.	.	.	(16ccc#\LL	.
.	16c#/JJ	.	.	.	.	.	.	.	.	.	.	.	.	16a#/JJ	.	.	.	.	.	.	16aa#\JJ	.
*Xrep	*	*	*	*	*	*	*	*	*	*	*	*	*	*	*	*	*	*	*	*	*	*
*	*	*	*	*	*	*	*	*	*	*	*v	*v	*	*	*	*	*	*	*	*	*	*
=43	=43	=43	=43	=43	=43	=43	=43	=43	=43	=43	=43	=43	=43	=43	=43	=43	=43	=43	=43	=43	=43
*	*	*	*	*	*	*	*^	*	*^	*	*	*	*	*	*	*^	*	*	*	*	*
8r	8r	.	2.r	.	2.r	.	8r	2.re	.	2.c#/_	8r	.	[2.F# 2.AA#\	.	8f#/)	4ryy	.	8r	2.rf	.	2.ryy	.	8ff#\)	.
8c#L 8F#\	8cc#L 8f#/	.	.	.	.	.	8c#X/L	.	.	.	8F#X\L	.	.	.	8r	.	.	8r	.	.	.	.	8r	.
8c#J 8F#\	8ff#J 8cc# 8f#/	.	.	.	.	.	8c#/J	.	.	.	8F#\J	.	.	.	8r	8ryy	.	8f#/	.	.	.	.	8r	.
*rep	*rep	*	*	*	*	*	*rep	*	*	*	*rep	*	*	*	*	*	*	*	*	*	*	*	*	*
8r	8r	.	.	.	.	.	8r	.	.	.	8r	.	.	.	[4.cc#/	[4.f#\	.	(4ff#^</	.	.	.	.	4r	.
8c#L 8F#\	8cc#L 8f#/	.	.	.	.	.	8c#/L	.	.	.	8F#\L	.	.	.	.	.	.	.	.	.	.	.	.	.
8c#J 8F#\	8ff#J 8cc# 8f#/	.	.	.	.	.	8c#/J	.	.	.	8F#\J	.	.	.	.	.	.	8ee#/)	.	.	.	.	8r	.
*Xrep	*Xrep	*	*	*	*	*	*Xrep	*	*	*	*Xrep	*	*	*	*	*	*	*	*	*	*	*	*	*
=44	=44	=44	=44	=44	=44	=44	=44	=44	=44	=44	=44	=44	=44	=44	=44	=44	=44	=44	=44	=44	=44	=44	=44	=44
*rep	*rep	*	*	*	*	*	*rep	*	*	*	*rep	*	*	*	*	*	*	*	*	*	*	*	*	*
8r	8r	.	2.r	.	2.r	.	8r	2.re	.	4.c#X/]	8r	.	2.F#] 2.BB\	.	(4.cc#/]	4.f#\_	.	(4.ee#^</	2.rf	.	2.ryy	.	2.ryy	.
8c#L 8F#\	8cc#L 8f#/	.	.	.	.	.	8c#/L	.	.	.	8F#\L	.	.	.	.	.	.	.	.	.	.	.	.	.
8c#J 8F#\	8ff#J 8cc# 8f#/	.	.	.	.	.	8c#/J	.	.	.	8F#\J	.	.	.	.	.	.	.	.	.	.	.	.	.
*Xrep	*Xrep	*	*	*	*	*	*Xrep	*	*	*	*Xrep	*	*	*	*	*	*	*	*	*	*	*	*	*
*	*	*	*	*	*	*	*	*	*	*	*rep	*	*	*	*	*	*	*	*	*	*	*	*	*
8r	8r	.	.	.	.	.	8r	.	.	[>4.d#X/	8r	.	.	.	8b/)	4f#\]	.	4dd#/)	.	.	.	.	.	.
8d#XL 8B 8F#\	8dd#XL 8b 8f#\	.	.	.	.	.	8BX/L	.	.	.	8F#\L	.	.	.	8r	.	.	.	.	.	.	.	.	.
8d#J 8B 8F#\	8ff#J 8dd# 8b 8f#\	.	.	.	.	.	8B/J	.	.	.	8F#\J	.	.	.	(<16dd#/LL	8r	.	8r	.	.	.	.	.	.
.	.	.	.	.	.	.	.	.	.	.	.	.	.	.	16b/JJ	.	.	.	.	.	.	.	.	.
*	*	*	*	*	*	*	*	*	*	*	*Xrep	*	*	*	*	*	*	*	*	*	*	*	*	*
=45	=45	=45	=45	=45	=45	=45	=45	=45	=45	=45	=45	=45	=45	=45	=45	=45	=45	=45	=45	=45	=45	=45	=45	=45
!	!	!	!	!	!	!	!	!	!	!LO:TX:a:t=P:problem=brak kontynuacji ligatury	!	!	!	!	!	!	!	!	!	!	!	!	!	!
8r	8r	.	2.r	.	2.r	.	8r	2.re	.	2.d#/_>	8r	.	2.G# 2.BB\	.	4g#/)	4r	.	8r	2.rf	.	2.ryy	.	2.ryy	.
8d#XL 8B 8G#\	8dd#XL 8b 8g#\	.	.	.	.	.	8d#X/L	.	.	.	8G#X\L	.	.	.	.	.	.	8r	.	.	.	.	.	.
8d#J 8B 8G#\	8gg#J 8dd# 8b 8g#\	.	.	.	.	.	8d#/J	.	.	.	8G#\J	.	.	.	8r	8rd	.	8g#/	.	.	.	.	.	.
*rep	*rep	*	*	*	*	*	*rep	*	*	*	*rep	*	*	*	*	*	*	*	*	*	*	*	*	*
8r	8r	.	.	.	.	.	8r	.	.	.	8r	.	.	.	4.dd#/	[>4.g#\	.	(4gg#^</	.	.	.	.	.	.
8d#L 8B 8G#\	8dd#L 8b 8g#\	.	.	.	.	.	8d#/L	.	.	.	8G#\L	.	.	.	.	.	.	.	.	.	.	.	.	.
8d#J 8B 8G#\	8gg#J 8dd# 8b 8g#\	.	.	.	.	.	8d#/J	.	.	.	8G#\J	.	.	.	.	.	.	8ff#/)	.	.	.	.	.	.
*Xrep	*Xrep	*	*	*	*	*	*Xrep	*	*	*	*Xrep	*	*	*	*	*	*	*	*	*	*	*	*	*
*	*	*	*	*	*	*	*v	*v	*	*	*	*	*	*	*	*	*	*	*	*	*	*	*	*
!!LO:PB:g=original
=46	=46	=46	=46	=46	=46	=46	=46	=46	=46	=46	=46	=46	=46	=46	=46	=46	=46	=46	=46	=46	=46	=46	=46
*	*	*	*	*	*	*	*	*	*	*	*	*^	*	*	*	*	*	*	*	*	*	*	*
!	!	!	!	!	!	!	!	!	!LO:SIC:v:t=4.d#/	!	!	!	!	!	!	!LO:TX:b:t=P:problem=brak zakończenia ligatury	!	!	!	!	!	!	!	!
8r	8r	.	2.ryy	.	2.ryy	.	2.ryy	.	4.d/]	8r	.	(4.G#/	[4.C#\	.	(4.dd#/	4.g#\_	.	(4.ff#/	2.r	.	2.ryy	.	4ryy	.
!	!	!	!	!	!	!	!	!	!	!LO:SIC:v:t=8G#\L	!	!	!	!	!	!	!	!	!	!	!	!	!	!
8d#XL 8G#\	8dd#XL 8g#\	.	.	.	.	.	.	.	.	8G\L	.	.	.	.	.	.	.	.	.	.	.	.	.	.
!	!	!	!	!	!	!	!	!	!	!LO:SIC:v:t=8G#\J	!	!	!	!	!	!	!	!	!	!	!	!	!	!
8d#J 8G#\	8gg#J 8dd# 8g#\	.	.	.	.	.	.	.	.	8G\J	.	.	.	.	.	.	.	.	.	.	.	.	8ryy	.
!	!	!	!	!	!	!	!	!	!	!	!	!	!	!	!	!	!	!LO:TX:t=P:stem.color=green:problem	!	!	!	!	!	!
8r	8r	.	.	.	.	.	.	.	4c#X/	8r	.	4c#/)	4C#\]	.	8cc#/)	4g#\]	.	8ee#/)	.	.	.	.	8ryy	.
!	!	!	!	!	!	!	!	!	!	!LO:SIC:v:t=8G#\	!	!	!	!	!	!	!	!LO:TX:a:t=P:problem=dwie pauzy dopisane na zielono	!	!	!	!	!	!
8c#L 8G#\	8cc#L 8g#\	.	.	.	.	.	.	.	.	8G\	.	.	.	.	8ryy	.	.	8r@	.	.	.	.	(8cc#\L	<
8c#\J	8cc#\J	.	.	.	.	.	.	.	8r	8ryy	.	8ryy	8ryy	.	16c#/LL	8ryy	.	8r@	.	.	.	.	8dd#\J	.
!	!	!	!	!	!	!	!	!	!	!	!	!	!	!	!	!	!	!	!	!	!	!	!LO:TX:a:t=P:problem=czerwona kreska taktowa we wszystkich głosach	!
.	.	.	.	.	.	.	.	.	.	.	.	.	.	.	16d#/JJ	.	.	.	.	.	.	.	.	.
*	*	*	*	*	*	*	*	*	*v	*v	*	*	*	*	*	*	*	*	*	*	*	*	*	*
=47	=47	=47	=47	=47	=47	=47	=47	=47	=47	=47	=47	=47	=47	=47	=47	=47	=47	=47	=47	=47	=47	=47	=47
!	!	!	!	!	!	!	!	!	!	!	!	!LO:N:vis=4	!	!	!	!	!	!	!	!	!	!	!
2.r	2.r	.	2.ryy	.	2.ryy	.	2.ryy	.	2.ryy	.	[>4.c#/	[>4.c#\	.	8e#/L	4ryy	.	2.cc#/	2.r	.	4r	.	8ee#\L	.
.	.	.	.	.	.	.	.	.	.	.	.	.	.	8f#/	.	.	.	.	<	.	.	8ff#\	.
.	.	.	.	.	.	.	.	.	.	.	.	.	.	8g#/J	8ryy	.	.	.	.	8r	.	8gg#\J	.
.	.	.	.	.	.	.	.	.	.	.	8c#/L]	8c#\L]	.	8a#/L	8f#\L	.	.	.	.	(8a#\L	<	8ff#\L	.
.	.	.	.	.	.	.	.	.	.	.	8B/	8B\	.	8b/	8g#\	.	.	.	.	8b\	.	8gg#\	.
.	.	.	.	.	.	.	.	.	.	.	8A#/J	8A#\J	.	8cc#/J	8a#\J	.	.	.	[[	8cc#\J)	[[	8aa#\J	[[
=48	=48	=48	=48	=48	=48	=48	=48	=48	=48	=48	=48	=48	=48	=48	=48	=48	=48	=48	=48	=48	=48	=48	=48
!	!	!	!	!	!	!	!	!	!	!LO:DY:rj	!	!	!LO:HP:a	!	!	!	!	!	!	!	!	!	!
8r	8r	ff	2.ryy	.	2.ryy	.	2.ryy	.	[>2.d#X/	f >	2.A#/	4.F#\	>	[4.dd#/	[4.a#\	.	[2.dd#/	2.r	sf	[4.dd#\	sf >	(4.bb\)	sf >
8A#X\L	8aa#XL 8a#X\	.	.	.	.	.	.	.	.	.	.	.	.	.	.	.	.	.	>	.	.	.	.
8A#\J	8a#\J	.	.	.	.	.	.	.	.	.	.	.	.	.	.	.	.	.	.	.	.	.	.
8r	8r	.	.	.	.	.	.	.	.	.	.	4.F##X\	.	4dd#/]	4a#\]	.	.	.	.	4dd#\]	.	8aa#\)	.
8d#X\L	8dd#X\L	.	.	.	.	.	.	.	.	.	.	.	.	.	.	.	.	.	.	.	.	8r	.
8A#\J	8a#\J	.	.	.	.	.	.	.	.	]]	.	.	]	8cc#/	8a#\	.	.	.	]	8cc#\	]	8aa#\	]
*	*	*	*	*	*	*	*	*	*	*	*	*	*	*v	*v	*	*	*	*	*	*	*	*
=49	=49	=49	=49	=49	=49	=49	=49	=49	=49	=49	=49	=49	=49	=49	=49	=49	=49	=49	=49	=49	=49	=49
.	.	.	.	.	.	.	.	.	.	.	.	.	.	8qcc# 8qa#/	p	.	.	.	8qcc#/	p	8qqaa#/	p
!	!	!	!	!	!	!	!	!	!	!	!	!	!LO:DY:rj	!	!	!	!	!	!	!	!	!
8B\L	8b\L	.	2.ryy	.	2.ryy	.	2.ryy	.	4.d#/]	p	4G#/	4G#\	p	8bL 8g#\	.	(4.dd#/]	2.r	p	8b/L	.	8gg#\L	.
8G#\	8g#\	.	.	.	.	.	.	.	.	.	.	.	.	16r	.	.	.	.	16r	.	16r	.
.	.	.	.	.	.	.	.	.	.	.	.	.	.	16a#K 16f##X\	.	.	.	.	16a#/K	.	16ff##X\K	.
8B\J	8b\J	.	.	.	.	.	.	.	.	.	8r	8ryy	.	8bJ 8g#\	.	.	.	.	8b/J	.	8gg#\J	.
!LO:TX:t=P:problem=mixed beam	!LO:TX:t=P:problem=mixed beam	!	!	!	!	!	!	!	!	!	!	!	!	!	!	!	!	!	!	!	!	!
8c#\L	8cc#\L	.	.	.	.	.	.	.	[4.c#X/	.	(8c#/L	8c#\L	.	(8g#L 8e#/	.	[4.cc#/)	.	.	(8g#/L	.	(8ee#\L	<
!	!	!	!	!	!	!	!	!	!	!	!	!	!	!	!	!	!	!	!	!	!LO:N:acc=n#	!
8C#/	8c#/	.	.	.	.	.	.	.	.	.	8B/	8B\	.	8a# 8f#/)	.	.	.	.	8a#/)	<	8ff#X\	.
8c#\J	8cc#\J	.	.	.	.	.	.	.	.	.	8G#/J	8G#\J	.	8bJ 8g#/	.	.	.	.	8b/J	[[	8gg#\J)	[[
*	*	*	*	*	*	*	*	*	*	*	*	*	*	*	*	*v	*v	*	*	*	*	*
=50	=50	=50	=50	=50	=50	=50	=50	=50	=50	=50	=50	=50	=50	=50	=50	=50	=50	=50	=50	=50	=50
!	!	!	!	!	!	!	!	!	!	!	!	!	!	!LO:S:s=2:note:problem=note-level slur	!LO:HP:a	!	!	!	!	!	!
8r	8r	.	2.ryy	.	2.ryy	.	2.ryy	.	4c#/]	.	(4A#/)	4A#\	>	(>4.cc# (>4.a#\	>	4.cc#/_>	.	(4.cc#\	>	(4.aa#\	>
8A#X\L	8a#X\L	.	.	.	.	.	.	.	.	.	.	.	.	.	.	.	.	.	.	.	.
8f#\J	8ff#\J	.	.	.	.	.	.	.	8r	.	8f#/	8f#\	.	.	.	.	.	.	.	.	.
8c#\	8cc#\	.	.	.	.	.	.	.	4r	.	8c#/)	8c#\	]	8a# 8f#/))	]	8cc#/]	.	8a#/)	]	8ff#\)	]
8r	8r	.	.	.	.	.	.	.	.	.	8BL 8G#^^\	8ryy	.	8cc#L 8c#^^/	.	8cc#L 8e#^^/	.	8r	.	8ee#X^^\L	.
8r	8r	.	.	.	.	.	.	.	8r	.	8A#J 8F#^^\	8ryy	.	8cc#J 8c#^^/	.	8dd#J 8f#^^/	.	8r	.	8ff#^^\J	.
*	*	*	*	*	*	*	*	*	*	*	*v	*v	*	*	*	*	*	*	*	*	*
!!LO:PB:g=original
=51	=51	=51	=51	=51	=51	=51	=51	=51	=51	=51	=51	=51	=51	=51	=51	=51	=51	=51	=51	=51
*	*	*	*	*	*	*	*	*	*	*	*	*	*^	*	*	*	*	*	*	*
!	!	!	!	!	!	!	!	!	!	!	!	!	!	!	!	!	!	!	!	!LO:TX:a:t=P:problem=tt. 51-56 skreślone na czerwono	!
2.ryy	2.ryy	.	2.r	.	2.r	.	2.r	.	2.r	.	8G#L 8E#^^\	.	8cc#L 8c#^^/	4ryy	.	8ee#L 8g#^^/	.	4r	.	8gg#^^\L	.
.	.	.	.	.	.	.	.	.	.	.	8F# 8D#^^\	.	8cc# 8c#^^/	.	.	8ff# 8a#^^/	.	.	.	8ccc#^^\	.
.	.	.	.	.	.	.	.	.	.	.	8E#J 8C#^^\	.	8cc#J 8c#^^/	8ryy	.	8gg#J 8b^^/	.	8r	.	8bb^^\J	.
.	.	.	.	.	.	.	.	.	.	.	8d#L 8B^^\	.	8cc#/L	8cc#\L	.	8aa#L 8cc#^^\	.	8cc#^^\L	.	8ccc#\L	.
.	.	.	.	.	.	.	.	.	.	.	8c# 8A#^^\	.	8dd#/	8cc#\	.	8bb 8dd#^^\	.	8dd#^^\	.	8ddd#\	.
!	!	!	!	!	!	!	!	!	!	!	!	!	!	!	!	!	!	!	!	!LO:TX:a:t=P:problem=czerwona kreska taktowa we wszystkich głosach	!
.	.	.	.	.	.	.	.	.	.	.	8BJ 8G#^^\	.	8ee#/J	8cc#\J	.	8gg#J 8ee#^^\	.	8ee#^^\J	.	8ccc#\J	.
=52	=52	=52	=52	=52	=52	=52	=52	=52	=52	=52	=52	=52	=52	=52	=52	=52	=52	=52	=52	=52	=52
*	*	*	*	*	*	*	*	*	*	*	*^	*	*	*	*	*	*	*	*	*	*
*	*	*	*	*	*	*	*	*	*	*	*	*	*	*	*	*	*	*	*2\right	*	*	*
4ryy	4ryy	.	2.r	.	4r	.	4r	.	4r	.	4A# 4F#\	4ryy	.	[2.ff#/	4cc#\	.	4aa# 4ff#\	.	[2.ff#\	.	4ccc#\	.
8ryy	8ryy	.	.	.	8r	.	8r	ff	8r	ff	8r	8ryy	.	.	8r	.	8r	.	.	.	8r	.
!	!LO:TX:b:t=tutta la forza.	!LO:DY:rj	!	!	!	!	!	!	!	!	!	!LO:N:vis=4	!LO:DY:rj	!	!	!LO:DY:rj	!	!LO:DY:rj	!	!	!	!
4d 4A 4F# 4D\	4ff# 4dd 4a 4f#/	ff	.	.	4.DTT<\	.	4.f#X 4.A^^/	.	4.d 4.F#X^^/	.	4.Dn/	4.Dn\	ff	.	4.a^>\	ff	4.ddn 4.f#^^/	ff	.	.	4.aan\	.
8r	8r	.	.	.	.	.	.	.	.	.	.	.	.	.	.	.	.	.	.	.	.	.
=53	=53	=53	=53	=53	=53	=53	=53	=53	=53	=53	=53	=53	=53	=53	=53	=53	=53	=53	=53	=53	=53	=53
*	*	*	*	*	*	*	*	*	*	*	*	*	*	*	*	*	*^	*	*	*	*	*
!	!	!	!	!	!	!	!	!	!LO:SIC:v:n=2:o=4.c#X 4.F^^/	!	!	!	!	!	!	!	!	!	!	!	!	!	!
4c# 4A 4F# 4C#\	4ff# 4cc# 4f#/	.	2.r	.	4AA\	.	4.f#X 4.A^^/	.	4.F#^^/	.	4.AAn/	4.AAn\	.	2.ff#/_	4.a^>\	.	4.cc# 4.f#^^/	4ryy	.	2.ff#\_	.	4.ff#\	.
8r	8r	.	.	.	8r	.	.	.	.	.	.	.	.	.	.	.	.	8ryy	.	.	.	.	.
!	!	!	!	!	!	!	!	!	!LO:SIC:v:n=2:o=4.c 4.F^^/	!	!	!LO:N:vis=4	!	!	!	!	!	!	!	!	!	!	!
4d 4A 4F# 4D\	4ff# 4a 4f#/	.	.	.	4D^\	.	4.f# 4.A^^/	.	4.F#^^/	.	4.Dn/	4.Dn\	.	.	(4.f#^>\	.	(4.b#X^^/	(4.an\	.	.	.	4.aan\	.
8r	8r	.	.	.	8r	.	.	.	.	.	.	.	.	.	.	.	.	.	.	.	.	.	.
=54	=54	=54	=54	=54	=54	=54	=54	=54	=54	=54	=54	=54	=54	=54	=54	=54	=54	=54	=54	=54	=54	=54	=54
4c# 4A#X 4F# 4C#\	4ff# 4a#X 4f#/	.	2.ryy	.	2.ryy	.	2.ryy	.	4c#X 4F#X/	.	4C#/	4C#\	.	8ff#] 8a#X\)	4ryy	.	8cc#/)	8a#X\)	.	8ff#\]	.	8ccc#X\	.
.	.	.	.	.	.	.	.	.	.	.	.	.	.	8r	.	.	8r	8ryy	.	8r	.	8r	.
8r	8r	.	.	.	.	.	.	.	8r	.	8c#/	8c#\	.	8cc#/	8r	.	8cc#|</	8r	.	8r	.	8ccc#|\	.
4r	4r	.	.	.	.	.	.	.	4r	.	4d#X/	4d#X^\	.	4dd#X^/	4r	.	4dd#X^</	4r	.	4r	.	4ddd#X^\	.
!	!	!LO:DY:t=sff	!	!	!	!	!	!LO:DY:t=sff	!	!	!	!	!	!	!	!	!	!	!	!	!	!	!
8r	8r	sf	.	.	.	.	.	sf	8r	.	8A#X/	8A#X\	.	8a#/	8r	.	8cc#/	8r	.	8r	.	8aa#\	.
=55	=55	=55	=55	=55	=55	=55	=55	=55	=55	=55	=55	=55	=55	=55	=55	=55	=55	=55	=55	=55	=55	=55	=55
*	*	*	*	*	*	*	*	*	*^	*	*	*	*	*	*	*	*	*	*	*	*	*	*
!	!	!	!	!	!	!	!	!	!	!	!LO:DY:t=sff	!	!LO:N:vis=4	!	!	!	!	!	!	!	!	!	!	!
4c# 4G# 4C#\	4gg# 4cc# 4g#\	.	2.ryy	.	2.ryy	.	2.G#X 2.C#X/	.	2.fn/	2.BX\	sf	[4.c#/	4.c#^\	.	4.cc#^/	[4.cc#^\	.	[4.cc#^</	2.r	.	2.r	.	[4.ccc#^\	.
8r	8r	.	.	.	.	.	.	.	.	.	.	.	.	.	.	.	.	.	.	.	.	.	.	.
!	!	!	!	!	!	!	!	!	!	!	!	!	!	!	!	!LO:TX:a:t=P:problem= dwie oddzielne nuty	!	!	!	!	!	!	!	!
4r	4r	.	.	.	.	.	.	.	.	.	.	4c#/]	4c#\	.	8cc#/	4cc#\]	.	8cc#/]	.	.	.	.	4ccc#\]	.
.	.	.	.	.	.	.	.	.	.	.	.	.	.	.	8ryy	.	.	8r	.	.	.	.	.	.
*	*	*	*	*	*	*	*	*	*	*	*	*	*Xtuplet	*	*	*	*	*	*	*	*	*	*	*
!	!	!	!	!	!	!	!	!	!	!	!	!LO:TUP:a:problem=klamra łukowa	!	!	!LO:TUP:a:problem=klamra łukowa	!	!	!	!	!	!	!	!LO:TUP:a:problem=klamra łukowa	!
8r	8r	.	.	.	.	.	.	.	.	.	.	24B/LL	24B\LL	.	24b\LL	8ryy	.	8r	.	.	.	.	24bb\LL	.
.	.	.	.	.	.	.	.	.	.	.	.	24A#/	24A#\	.	24a#\	.	.	.	.	.	.	.	24aa#\	.
.	.	.	.	.	.	.	.	.	.	.	.	24G#/JJ	24G#\JJ	.	24g#\JJ	.	.	.	.	.	.	.	24gg#\JJ	.
*	*	*	*	*	*	*	*	*	*v	*v	*	*	*	*	*	*	*	*v	*v	*	*	*	*	*
*	*	*	*	*	*	*	*	*	*	*	*v	*v	*	*	*	*	*	*	*	*	*	*
!!LO:LB:g=original
=56	=56	=56	=56	=56	=56	=56	=56	=56	=56	=56	=56	=56	=56	=56	=56	=56	=56	=56	=56	=56	=56
*	*	*	*	*	*	*	*^	*	*	*	*	*	*	*	*	*	*	*	*	*	*
*	*	*	*	*	*	*	*	*	*	*	*	*	*	*	*	*	*	*	*	*	*2\right	*
!	!	!	!	!	!LO:TX:t=P:problem=partia tmb i kotłów zapisana na jednej linii	!	!	!	!	!	!LO:DY:rj	!	!LO:DY:rj	!	!	!LO:DY:rj	!	!LO:DY:rj	!	!LO:DY:rj	!	!LO:DY:rj
4c#X 4A#y 4F# 4C#\	4ff# 4cc# 4a#X 4f#\	.	2.r	.	2.r	.	[2.F#X/	[>2.F#\	.	[2.c#X [2.C#X/	ff	4.A# 4.F#\	ff	4ff#/	4.a#\	ff	4aa# 4ff#\	ff	4aa#\	ff	[2.ccc#\	ff
8r	8r	.	.	.	.	.	.	.	.	.	.	.	.	8cc#/	.	.	8aa# 8ff#\	.	8aa#\	.	.	.
.	.	.	.	.	.	.	.	.	.	.	.	.	.	.	.	.	8qqaa# 8qqff#/	.	8qqaa#/	.	.	.
4c# 4C#\	4cc#\	.	.	.	.	.	.	.	.	.	.	8BL 8G#\	.	4cc#/	8g#\L	.	(8gg#L 8ee#\	.	(8gg#\L	.	.	.
.	.	.	.	.	.	.	.	.	.	.	.	8c# 8A#\	.	.	8f#\	.	8ff# 8dd#\)	.	8ff#\	.	.	.
8r	8r	.	.	.	.	.	.	.	.	.	.	8BJ 8G#\	.	8cc#/	8g#\J	.	8gg#J 8ee#\	.	8gg#\J)	.	.	.
=57	=57	=57	=57	=57	=57	=57	=57	=57	=57	=57	=57	=57	=57	=57	=57	=57	=57	=57	=57	=57	=57	=57
*	*	*	*	*	*	*	*rep	*rep	*	*rep	*	*	*	*	*	*	*	*	*	*	*	*
!	!	!	!	!	!	!	!	!	!	!	!	!LO:TX:t=P:problem=mixed beam	!	!	!	!	!	!	!	!	!	!
4c# 4A#X 4F# 4C#\	4ff# 4cc# 4a#X 4f#\	.	2.r	.	2.r	.	2.F#X/_	2.F#X\_>	.	2.c#X] 2.C#X/]	.	(8A#L 8F#\	.	4cc#\	4a#\	.	[4.aa# [>4.ff#\	.	[4.aa#\	.	2.ccc#\]	.
.	.	.	.	.	.	.	.	.	.	.	.	8c# 8A#\)	.	.	.	.	.	.	.	.	.	.
8r	8r	.	.	.	.	.	.	.	.	.	.	8C#/J	.	8cc#/	8a#\	.	.	.	.	.	.	.
*	*	*	*	*	*	*	*	*	*	*	*	*rep	*	*	*	*	*	*	*	*	*	*
!	!	!	!	!	!	!	!	!	!	!	!	!LO:TX:t=P:problem=mixed beam	!	!	!	!	!	!	!	!	!	!
4c# 4C#\	4cc#\	.	.	.	.	.	.	.	.	.	.	(8A#L 8F#\	.	4cc#/	4a#\	.	4aa#] 4ff#\]	.	8aa#\]	.	.	.
.	.	.	.	.	.	.	.	.	.	.	.	8c# 8A#\)	.	.	.	.	.	.	8r	.	.	.
8r	8r	.	.	.	.	.	.	.	.	.	.	8C#/J	.	8ryy	8ryy	.	8aa# 8cc#\	.	8ccc#\	.	.	.
*	*	*	*	*	*	*	*Xrep	*Xrep	*	*Xrep	*	*Xrep	*	*	*	*	*	*	*	*	*	*
=58	=58	=58	=58	=58	=58	=58	=58	=58	=58	=58	=58	=58	=58	=58	=58	=58	=58	=58	=58	=58	=58	=58
*	*	*	*	*	*	*	*	*	*	*^	*	*	*	*	*	*	*	*	*	*	*	*
*	*	*	*	*	*	*	*	*	*	*	*2\right	*	*rep	*	*	*	*	*	*	*	*	*	*
!	!	!	!	!	!	!	!	!	!	!	!	!	!LO:TX:t=P:problem=mixed beam	!	!	!LO:N:vis=4	!	!	!	!	!	!	!
4c# 4A#X 4F# 4C#\	4aa#X 4ff# 4cc# 4a#X\	.	2.ryy	.	2.ryy	.	2.F#X/_	2.F#X\_	.	2.f#X/	2.A#X\	.	(8A#L 8F#\	.	([4.dd#^/	[>4.dd#\	.	[4.aa# [>4.ff#\	.	[4.ddd#\	.	[4.ddd#\	.
.	.	.	.	.	.	.	.	.	.	.	.	.	8c# 8A#\)	.	.	.	.	.	.	.	.	.	.
8r	8r	.	.	.	.	.	.	.	.	.	.	.	8C#/J	.	.	.	.	.	.	.	.	.	.
*	*	*	*	*	*	*	*	*	*	*	*	*	*Xrep	*	*	*	*	*	*	*	*	*	*
*	*	*	*	*	*	*	*	*	*	*	*	*	*rep	*	*	*	*	*	*	*	*	*	*
!	!	!	!	!	!	!	!	!	!	!	!	!	!LO:TX:t=P:problem=mixed beam	!	!	!	!	!	!	!	!	!	!
4c# 4A# 4F# 4C#\	4ff# 4cc# 4a# 4f#/	.	.	.	.	.	.	.	.	.	.	.	(8A#L 8F#\	.	8dd#/L]	8dd#\L]	.	4aa#] 4ff#\]	.	8ddd#\L]	.	8ddd#\L]	.
.	.	.	.	.	.	.	.	.	.	.	.	.	8c# 8A#\)	.	8cc#/	8cc#\	.	.	.	8ccc#\	.	8ccc#\	.
8r	8r	.	.	.	.	.	.	.	.	.	.	.	8C#/J	.	8f#/J)	8f#\J	.	8ff# 8a#'/	.	8ff#\J	.	8ff#\J	.
*	*	*	*	*	*	*	*	*	*	*	*	*	*Xrep	*	*	*	*	*	*	*	*	*	*
=59	=59	=59	=59	=59	=59	=59	=59	=59	=59	=59	=59	=59	=59	=59	=59	=59	=59	=59	=59	=59	=59	=59	=59
*rep	*	*	*	*	*	*	*rep	*rep	*	*	*	*	*rep	*	*	*	*	*	*	*	*	*	*
!	!LO:SIC:v:n=2:o=4cc# 4a 4f#/	!	!	!	!	!	!	!	!	!	!	!	!LO:TX:t=P:problem=mixed beam	!	!	!	!	!	!	!	!	!	!
4c# 4A#X 4F# 4C#\	4a#	.	2.ryy	.	2.ryy	.	2.F#X/_	2.F#X\_	.	2.c#X/	2.A#X\	.	(8A#L 8F#\	.	[4.a#/	[>4.a#\	.	[4.cc# [4.f#/	.	[4.aa#\	.	[4.aa#\	.
.	.	.	.	.	.	.	.	.	.	.	.	.	8c# 8A#\)	.	.	.	.	.	.	.	.	.	.
8r	8r	.	.	.	.	.	.	.	.	.	.	.	8C#/J	.	.	.	.	.	.	.	.	.	.
!	!LO:SIC:v:n=1:o=4a 4f#/	!	!	!	!	!	!	!	!	!	!	!	!LO:TX:t=P:problem=mixed beam	!	!	!	!	!	!	!	!	!	!
4c# 4C#\	4a#	.	.	.	.	.	.	.	.	.	.	.	(8A#L 8F#\	.	4a#/]	4a#\]	.	4cc#] 4f#/]	.	4aa#\]	.	4aa#\]	.
.	.	.	.	.	.	.	.	.	.	.	.	.	8c# 8A#\)	.	.	.	.	.	.	.	.	.	.
8r	8r	.	.	.	.	.	.	.	.	.	.	.	8C#/J	.	8c#'/	8c#\	.	8a# 8f#'/	.	8cc#\	.	8cc#\	.
*Xrep	*	*	*	*	*	*	*Xrep	*Xrep	*	*	*	*	*Xrep	*	*	*	*	*	*	*	*	*	*
*	*	*	*	*	*	*	*	*	*	*v	*v	*	*	*	*	*	*	*	*	*	*	*	*
=60	=60	=60	=60	=60	=60	=60	=60	=60	=60	=60	=60	=60	=60	=60	=60	=60	=60	=60	=60	=60	=60	=60
*rep	*	*	*	*	*	*	*	*	*	*	*	*	*	*	*	*	*	*	*	*	*	*
!	!LO:SIC:v:n=2:o=4ff# 4a 4f#/	!	!	!	!	!	!	!	!	!	!	!	!	!	!	!	!	!	!	!	!	!
4c# 4A#X 4F# 4C#\	4a#	.	2.ryy	.	2.ryy	.	4F#X/]	4F#X\]	.	2.A#X 2.F#X/	.	(8A#L 8F#\	.	([4.d#/	[>4.d#\	.	[4.a# [>4.f#/	.	([4.dd#\	.	([4.dd#\	.
.	.	.	.	.	.	.	.	.	.	.	.	8C#\)	.	.	.	.	.	.	.	.	.	.
8r	8r	.	.	.	.	.	8r	8ryy	.	.	.	8A#J 8F#\	.	.	.	.	.	.	.	.	.	.
*	*	*	*	*	*	*	*	*	*	*	*	*rep	*	*	*	*	*	*	*	*	*	*
!	!LO:SIC:v:n=1:o=4dd 4a 4f#/:n=2:o=4dd 4a 4f#/	!	!	!	!	!	!	!	!	!	!	!	!	!	!	!	!	!	!	!	!	!
4c# 4C#\	4a#	.	.	.	.	.	4r	4ryy	.	.	.	(8A#L 8F#\	.	8d#/L]	4d#]	.	4a#] 4f#/]	.	8dd#\L]	.	8dd#\L]	.
.	.	.	.	.	.	.	.	.	.	.	.	8C#\)	.	8c#/	.	.	.	.	8cc#\J)	.	8cc#\J	.
8r	8r	.	.	.	.	.	8r	8ryy	.	.	.	8A#J 8F#\	.	8A#/J)	8ryy	.	8a# 8f#'/	.	8r	.	8ff#\)	.
*Xrep	*	*	*	*	*	*	*	*	*	*	*	*Xrep	*	*	*	*	*	*	*	*	*	*
*	*	*	*	*	*	*	*v	*v	*	*	*	*	*	*v	*v	*	*	*	*	*	*	*
!!LO:PB:g=original
=61	=61	=61	=61	=61	=61	=61	=61	=61	=61	=61	=61	=61	=61	=61	=61	=61	=61	=61	=61	=61
*	*	*	*	*	*	*	*	*	*	*	*^	*	*	*	*	*	*	*	*	*
!LO:SIC:v:n=2:o=4c# 4A 4F#\	!LO:SIC:v:n=2:o=4cc# 4a 4f#/	!LO:DY:rj	!	!	!	!	!	!	!	!	!	!	!LO:DY:rj	!	!LO:DY:rj	!	!	!	!LO:DY:rj	!	!LO:DY:rj
4A#	4a#	p	2.r	.	2.r	.	2.r	.	4A#X 4F#X/	.	(8A#L 8F#\	4ryy	p	2.c# 2.A#/	p	4a# 4f#/	.	2.a#/	p	2.ff#\	p
.	.	.	.	.	.	.	.	.	.	.	8C#\)	.	.	.	.	.	.	.	.	.	.
8r	8r	.	.	.	.	.	.	.	8r	.	8A#J 8F#\	8ryy	.	.	.	8r	.	.	.	.	.
!LO:SIC:v:n=2:o=4c# 4A\	!LO:SIC:v:n=1:o=4a 4f#/	!	!	!	!	!	!	!	!	!	!	!	!	!	!	!	!	!	!	!	!
4A#\	4a#	.	.	.	.	.	.	.	4r	.	8C#/L	8C#\L	.	.	.	4r	.	.	.	.	.
.	.	.	.	.	.	.	.	.	.	.	8A#/	8A#\	.	.	.	.	.	.	.	.	.
!	!	!	!	!	!	!	!	!	!	!	!	!	!	!	!	!	!	!	!	!LO:TX:a:t=P:problem=czerwona kreska taktowa we wszystkich głosach	!
8r	8r	.	.	.	.	.	.	.	8r	.	8G#/J	8G#\J	.	.	.	8r	.	.	.	.	.
=62	=62	=62	=62	=62	=62	=62	=62	=62	=62	=62	=62	=62	=62	=62	=62	=62	=62	=62	=62	=62	=62
2.r	2.r	.	2.r	.	2.r	.	2.r	.	2.r	.	4F#/	4F#\	.	2.r	.	2.r	.	2.r	.	2.r	.
.	.	.	.	.	.	.	.	.	.	.	8r	8ryy	.	.	.	.	.	.	.	.	.
.	.	.	.	.	.	.	.	.	.	.	4r	4ryy	.	.	.	.	.	.	.	.	.
.	.	.	.	.	.	.	.	.	.	.	8r	8ryy	.	.	.	.	.	.	.	.	.
*	*	*	*	*	*	*	*	*	*	*	*v	*v	*	*	*	*	*	*	*	*	*
=63	=63	=63	=63	=63	=63	=63	=63	=63	=63	=63	=63	=63	=63	=63	=63	=63	=63	=63	=63	=63
2.r	2.r	.	2.r	.	2.r	.	2.r	.	2.r	.	2.r	.	2.r	.	2.r	.	2.r	.	2.r	.
=64	=64	=64	=64	=64	=64	=64	=64	=64	=64	=64	=64	=64	=64	=64	=64	=64	=64	=64	=64	=64
!	!	!	!LO:TX:a:t=piu lento\n/4	!	!	!	!	!	!	!	!	!	!LO:TX:a:t=/4	!	!	!	!	!	!LO:TX:a:t=piu lento.\n/4	!
2.ryy	2.ryy	.	2.ryy	.	2.ryy	.	2.ryy	.	2.ryy	.	2.ryy	.	2.ryy	.	2.ryy	.	2.ryy	.	2.ryy	.
=65	=65	=65	=65	=65	=65	=65	=65	=65	=65	=65	=65	=65	=65	=65	=65	=65	=65	=65	=65	=65
2.ryy	2.ryy	.	2.ryy	.	2.ryy	.	2.ryy	.	2.ryy	.	2.ryy	.	2.ryy	.	2.ryy	.	2.ryy	.	2.ryy	.
=66	=66	=66	=66	=66	=66	=66	=66	=66	=66	=66	=66	=66	=66	=66	=66	=66	=66	=66	=66	=66
2.ryy	2.ryy	.	2.ryy	.	2.ryy	.	2.ryy	.	2.ryy	.	2.ryy	.	2.ryy	.	2.ryy	.	2.ryy	.	2.ryy	.
=67	=67	=67	=67	=67	=67	=67	=67	=67	=67	=67	=67	=67	=67	=67	=67	=67	=67	=67	=67	=67
2.ryy	2.ryy	.	2.ryy	.	2.ryy	.	2.ryy	.	2.ryy	.	2.ryy	.	2.ryy	.	2.ryy	.	2.ryy	.	2.ryy	.
=68	=68	=68	=68	=68	=68	=68	=68	=68	=68	=68	=68	=68	=68	=68	=68	=68	=68	=68	=68	=68
!	!	!	!	!	!	!	!	!	!	!	!	!	!	!	!	!	!LO:TX:b:t=dolciſsimo	!	!	!
2.ryy	16F#</LL	p	2.ryy	.	2.ryy	.	2.ryy	.	2.ryy	.	2.ryy	.	2.ryy	.	2.ryy	.	(16aa#'\LL	.	4r	.
.	16C#</	.	.	.	.	.	.	.	.	.	.	.	.	.	.	.	16ff#'\	.	.	.
.	16F#</	.	.	.	.	.	.	.	.	.	.	.	.	.	.	.	16ee#'\	.	.	.
.	16G#</JJ	.	.	.	.	.	.	.	.	.	.	.	.	.	.	.	16dd#'\	.	.	.
.	16A#X</LL	.	.	.	.	.	.	.	.	.	.	.	.	.	.	.	16cc#'\	.	8r	.
.	16c#/JJ	.	.	.	.	.	.	.	.	.	.	.	.	.	.	.	16b'\JJ	.	.	.
.	16f#/LL	.	.	.	.	.	.	.	.	.	.	.	.	.	.	.	16a#'/)	.	16r	.
!	!	!	!	!	!	!	!	!	!	!	!	!	!	!	!	!	!	!	!LO:TX:b:t=dolciſsim	!
.	16d#X/	.	.	.	.	.	.	.	.	.	.	.	.	.	.	.	16r	.	(16ff#'\LL	.
.	16c#/	.	.	.	.	.	.	.	.	.	.	.	.	.	.	.	8r	.	16ee#'\	.
.	16A#</JJ	.	.	.	.	.	.	.	.	.	.	.	.	.	.	.	.	.	16dd#'\	.
.	16F#</LL	.	.	.	.	.	.	.	.	.	.	.	.	.	.	.	8r	.	16cc#'\	.
.	16C#</JJ	.	.	.	.	.	.	.	.	.	.	.	.	.	.	.	.	.	16b'\JJ	.
=69	=69	=69	=69	=69	=69	=69	=69	=69	=69	=69	=69	=69	=69	=69	=69	=69	=69	=69	=69	=69
2.ryy	16F#</LL	.	2.ryy	.	2.ryy	.	2.ryy	.	2.ryy	.	2.ryy	.	2.ryy	.	2.ryy	.	4r	.	16a#'\LL	.
.	16C#</	.	.	.	.	.	.	.	.	.	.	.	.	.	.	.	.	.	16cc#'\	.
.	16F#</	.	.	.	.	.	.	.	.	.	.	.	.	.	.	.	.	.	16dd#'\	.
.	16G#</JJ	.	.	.	.	.	.	.	.	.	.	.	.	.	.	.	.	.	16ee#'\	.
.	16A#X</LL	.	.	.	.	.	.	.	.	.	.	.	.	.	.	.	8r	.	16ff#'\	.
.	16c#/JJ	.	.	.	.	.	.	.	.	.	.	.	.	.	.	.	.	.	16gg#'\JJ	.
.	16f#/LL	.	.	.	.	.	.	.	.	.	.	.	.	.	.	.	16r	.	8aa#'\)	.
.	16A#</	.	.	.	.	.	.	.	.	.	.	.	.	.	.	.	(16cc#'\LL	.	.	.
.	16c#/	.	.	.	.	.	.	.	.	.	.	.	.	.	.	.	16dd#'\	.	8r	.
.	16F#</JJ	.	.	.	.	.	.	.	.	.	.	.	.	.	.	.	16ee#'\	.	.	.
.	16A#</LL	.	.	.	.	.	.	.	.	.	.	.	.	.	.	.	16ff#'\	.	8r	.
.	16C#</JJ	.	.	.	.	.	.	.	.	.	.	.	.	.	.	.	16gg#'\JJ	.	.	.
=70	=70	=70	=70	=70	=70	=70	=70	=70	=70	=70	=70	=70	=70	=70	=70	=70	=70	=70	=70	=70
2.ryy	16F#</LL	.	2.ryy	.	2.ryy	.	2.ryy	.	2.ryy	.	2.ryy	.	2.ryy	.	2.ryy	.	16aa#'\LL	.	4r	.
.	16C#</	.	.	.	.	.	.	.	.	.	.	.	.	.	.	.	16ff#'\	.	.	.
.	16F#</	.	.	.	.	.	.	.	.	.	.	.	.	.	.	.	16ee#'\	.	.	.
.	16G#</JJ	.	.	.	.	.	.	.	.	.	.	.	.	.	.	.	16dd#'\	.	.	.
.	16A#X</LL	.	.	.	.	.	.	.	.	.	.	.	.	.	.	.	16cc#'\	.	8r	.
.	16c#/JJ	.	.	.	.	.	.	.	.	.	.	.	.	.	.	.	16b'\JJ	.	.	.
.	16f#/LL	.	.	.	.	.	.	.	.	.	.	.	.	.	.	.	16a#/)	.	16r	.
.	16d#X/	.	.	.	.	.	.	.	.	.	.	.	.	.	.	.	16r	.	(16ff#'\LL	.
.	16c#/	.	.	.	.	.	.	.	.	.	.	.	.	.	.	.	8r	.	16ee#'\	.
.	16A#</	.	.	.	.	.	.	.	.	.	.	.	.	.	.	.	.	.	16dd#'\	.
.	16F#</	.	.	.	.	.	.	.	.	.	.	.	.	.	.	.	8r	.	16cc#'\	.
.	16C#</JJ	.	.	.	.	.	.	.	.	.	.	.	.	.	.	.	.	.	16b'\JJ	.
!!LO:LB:g=original
=71	=71	=71	=71	=71	=71	=71	=71	=71	=71	=71	=71	=71	=71	=71	=71	=71	=71	=71	=71	=71
2.ryy	16F#</LL	.	2.ryy	.	2.ryy	.	2.ryy	.	2.ryy	.	2.ryy	.	2.ryy	.	2.ryy	.	4ryy	.	16a#'\LL	.
.	16C#</	.	.	.	.	.	.	.	.	.	.	.	.	.	.	.	.	.	16cc#'\	.
.	16F#</	.	.	.	.	.	.	.	.	.	.	.	.	.	.	.	.	.	16dd#'\	.
.	16G#</JJ	.	.	.	.	.	.	.	.	.	.	.	.	.	.	.	.	.	16ee#'\	.
.	16A#X</LL	.	.	.	.	.	.	.	.	.	.	.	.	.	.	.	8ryy	.	16ff#'\	.
.	16c#</JJ	.	.	.	.	.	.	.	.	.	.	.	.	.	.	.	.	.	16gg#'\JJ	.
.	16f#\LL	.	.	.	.	.	.	.	.	.	.	.	.	.	.	.	16r	.	8aa#'\)	.
!	!	!	!	!	!	!	!	!	!	!	!	!	!	!	!	!	!	!LO:HP:t=dimin	!	!
.	16a#X\	.	.	.	.	.	.	.	.	.	.	.	.	.	.	.	(16cc#'\LL	>	.	.
.	16f#\	.	.	.	.	.	.	.	.	.	.	.	.	.	.	.	16dd#'\	.	8r	.
.	16cc#\	.	.	.	.	.	.	.	.	.	.	.	.	.	.	.	16ee#'\	.	.	.
.	16a#\	.	.	.	.	.	.	.	.	.	.	.	.	.	.	.	16ff#'\	.	8r	.
.	16cc#\JJ	.	.	.	.	.	.	.	.	.	.	.	.	.	.	.	16gg#'\JJ	.	.	.
*clefG2	*	*	*	*	*	*	*	*	*	*	*	*	*	*	*	*	*	*	*	*
=72	=72	=72	=72	=72	=72	=72	=72	=72	=72	=72	=72	=72	=72	=72	=72	=72	=72	=72	=72	=72
8r	8ff#\	.	2.ryy	.	2.ryy	.	2.ryy	.	2.ryy	.	2.ryy	.	2.ryy	.	2.ryy	.	8aa#'\)	.	2.r	.
8ff#\L	8fff#\L	.	.	.	.	.	.	.	.	.	.	.	.	.	.	.	8r	.	.	.
8dd#X\J	8ddd#X\J	.	.	.	.	.	.	.	.	.	.	.	.	.	.	.	8r	.	.	.
8cc#/L	8ccc#\L	.	.	.	.	.	.	.	.	.	.	.	.	.	.	.	4r	.	.	.
8a#X/	8aa#X\	.	.	.	.	.	.	.	.	.	.	.	.	.	.	.	.	.	.	.
8f#/J	8ff#\J	.	.	.	.	.	.	.	.	.	.	.	.	.	.	.	8r	.	.	.
*clefF4	*	*	*	*	*	*	*	*	*	*	*	*	*	*	*	*	*	*	*	*
=73	=73	=73	=73	=73	=73	=73	=73	=73	=73	=73	=73	=73	=73	=73	=73	=73	=73	=73	=73	=73
8d#y\L	8dd#X/L	.	2.ryy	.	2.ryy	.	2.ryy	.	2.ryy	.	2.ryy	.	2.ryy	.	2.ryy	.	2.ryy	.	2.ryy	.
8c#\	8cc#/	.	.	.	.	.	.	.	.	.	.	.	.	.	.	.	.	.	.	.
8A#y\J	8a#X/J	.	.	.	.	.	.	.	.	.	.	.	.	.	.	.	.	.	.	.
8F#\L	8f#/	.	.	.	.	.	.	.	.	.	.	.	.	.	.	.	.	.	.	.
8C#\	8c#/L	.	.	.	.	.	.	.	.	.	.	.	.	.	.	.	.	.	.	.
8AA#y\J	8A#y/J	.	.	.	.	.	.	.	.	.	.	.	.	.	.	.	.	.	.	.
=74	=74	=74	=74	=74	=74	=74	=74	=74	=74	=74	=74	=74	=74	=74	=74	=74	=74	=74	=74	=74
4FF#/	4F#/	.	2.r;	.	2.r;	.	2.r;	.	2.r;	.	2.r;	.	2.r;	.	2.r;	.	2.r;	.	2.r;	.
8r	8r	.	.	.	.	.	.	.	.	.	.	.	.	.	.	.	.	.	.	.
4r;	4r;	.	.	.	.	.	.	.	.	.	.	.	.	.	.	.	.	.	.	.
8r	8r	.	.	.	.	.	.	.	.	.	.	.	.	.	.	.	.	.	.	.
==	==	==	==	==	==	==	==	==	==	==	==	==	==	==	==	==	==	==	==	==
*-	*-	*-	*-	*-	*-	*-	*-	*-	*-	*-	*-	*-	*-	*-	*-	*-	*-	*-	*-	*-
!!!system-decoration: (s1,s2,s3,s4,s5,g1,s8,s9{s10,s11})
!!!RDF**kern: > = above
!!!RDF**kern: < = below
!!!RDF**kern: @ = marked note, color=blue
!!!RDF**kern: | = vertical stroke
!!!RDF**dynam: pp = "pp."
!!!ENC: Marta Lawrence
!!!END: 2021-08-18
!!!ENC: Marcin Jachim
!!!END: 2021-08-09
